;FLAVOR:Marlin
;TIME:16492
;Filament used: 11.9662m
;Layer height: 0.2
;MINX:34.047
;MINY:26.893
;MINZ:0.2
;MAXX:200.958
;MAXY:208.104
;MAXZ:13.6
;Generated with Cura_SteamEngine main
M140 S50
M105
M190 S50
M104 S200
M105
M109 S200
M82 ;absolute extrusion mode
; Ender 3 Custom Start G-code
G92 E0 ; Reset Extruder
G28 ; Home all axes
G1 Z2.0 F3000 ; Move Z Axis up little to prevent scratching of Heat Bed
G1 X0.1 Y20 Z0.3 F5000.0 ; Move to start position
G1 X0.1 Y200.0 Z0.3 F1500.0 E15 ; Draw the first line
G1 X0.4 Y200.0 Z0.3 F5000.0 ; Move to side a little
G1 X0.4 Y20 Z0.3 F1500.0 E30 ; Draw the second line
G92 E0 ; Reset Extruder
G1 Z2.0 F3000 ; Move Z Axis up little to prevent scratching of Heat Bed
G1 X5 Y20 Z0.3 F5000.0 ; Move over to prevent blob squish
G92 E0
G92 E0
G1 F2700 E-5
;LAYER_COUNT:68
;LAYER:0
M107
G0 F6000 X51.978 Y46.731 Z0.2
G0 X48.752 Y54.39
;TYPE:SKIRT
G1 F2700 E0
G1 F1200 X48.908 Y53.106 E0.04302
G1 X48.975 Y52.729 E0.05576
G1 X49.184 Y51.781 E0.08804
G1 X49.471 Y50.852 E0.12038
G1 X49.833 Y49.951 E0.15268
G1 X50.267 Y49.082 E0.18499
G1 X50.772 Y48.252 E0.2173
G1 X51.344 Y47.467 E0.24961
G1 X51.978 Y46.731 E0.28191
G1 X52.67 Y46.05 E0.31421
G1 X53.416 Y45.428 E0.34651
G1 X54.211 Y44.869 E0.37884
G1 X55.049 Y44.378 E0.41114
G1 X55.632 Y44.088 E0.4328
G1 X56.825 Y43.538 E0.47649
G1 X92.047 Y28.101 E1.75555
G1 X92.702 Y27.824 E1.77921
G1 X93.611 Y27.483 E1.8115
G1 X94.546 Y27.217 E1.84383
G1 X95.499 Y27.03 E1.87613
G1 X96.464 Y26.921 E1.90843
G1 X97.435 Y26.893 E1.94074
G1 X98.405 Y26.944 E1.97305
G1 X99.368 Y27.075 E2.00537
G1 X100.316 Y27.285 E2.03767
G1 X101.244 Y27.571 E2.06996
G1 X102.146 Y27.934 E2.1023
G1 X103.014 Y28.369 E2.1346
G1 X103.844 Y28.874 E2.16691
G1 X104.629 Y29.446 E2.19922
G1 X105.365 Y30.08 E2.23152
G1 X106.046 Y30.773 E2.26384
G1 X106.668 Y31.519 E2.29615
G1 X107.24 Y32.336 E2.32932
G1 X108.701 Y34.621 E2.41952
G1 X110.1 Y36.678 E2.50226
G1 X111.556 Y38.693 E2.58495
G1 X113.067 Y40.663 E2.66752
G1 X114.645 Y42.606 E2.75078
G1 X116.285 Y44.513 E2.83443
G1 X117.944 Y46.334 E2.91637
G1 X119.685 Y48.139 E2.99978
G1 X121.462 Y49.881 E3.08254
G1 X123.305 Y51.588 E3.16609
G1 X125.182 Y53.23 E3.24904
G1 X127.086 Y54.803 E3.33118
G1 X129.082 Y56.359 E3.41536
G1 X131.067 Y57.818 E3.49729
G1 X133.13 Y59.248 E3.58078
G1 X135.27 Y60.64 E3.66569
G1 X136.626 Y61.479 E3.71873
G1 X158.496 Y74.721 E4.56907
G1 X159.244 Y75.189 E4.59842
G1 X160.045 Y75.739 E4.63074
G1 X160.798 Y76.353 E4.66305
G1 X161.529 Y77.059 E4.69685
G1 X162.081 Y77.642 E4.72356
G1 X197.468 Y116.032 E6.46012
G1 X197.949 Y116.569 E6.4841
G1 X198.566 Y117.319 E6.5164
G1 X199.12 Y118.117 E6.54871
G1 X199.607 Y118.957 E6.581
G1 X200.023 Y119.835 E6.61332
G1 X200.365 Y120.744 E6.64562
G1 X200.631 Y121.679 E6.67795
G1 X200.819 Y122.632 E6.71026
G1 X200.929 Y123.597 E6.74256
G1 X200.958 Y124.568 E6.77487
G1 X200.908 Y125.538 E6.80718
G1 X200.778 Y126.5 E6.83946
G1 X200.569 Y127.449 E6.87178
G1 X200.283 Y128.378 E6.90411
G1 X199.922 Y129.279 E6.9364
G1 X199.488 Y130.148 E6.96871
G1 X199.238 Y130.577 E6.98522
G1 X155.76 Y202.002 E9.76635
G1 X155.388 Y202.593 E9.78957
G1 X154.838 Y203.393 E9.82186
G1 X154.223 Y204.145 E9.85417
G1 X153.548 Y204.844 E9.88649
G1 X152.818 Y205.485 E9.9188
G1 X152.038 Y206.064 E9.95111
G1 X151.213 Y206.577 E9.98342
G1 X150.349 Y207.02 E10.01572
G1 X149.451 Y207.391 E10.04803
G1 X148.526 Y207.686 E10.08033
G1 X147.579 Y207.904 E10.11265
G1 X146.618 Y208.044 E10.14495
G1 X145.648 Y208.104 E10.17727
G1 X144.677 Y208.085 E10.20957
G1 X143.711 Y207.985 E10.24188
G1 X142.756 Y207.807 E10.27419
G1 X141.819 Y207.55 E10.3065
G1 X140.907 Y207.217 E10.33879
G1 X140.024 Y206.81 E10.37113
G1 X139.54 Y206.548 E10.38944
G1 X138.976 Y206.22 E10.41114
G1 X40.145 Y146.055 E14.25946
G1 X39.57 Y145.694 E14.28205
G1 X38.769 Y145.144 E14.31436
G1 X38.016 Y144.53 E14.34668
G1 X37.316 Y143.856 E14.379
G1 X36.675 Y143.127 E14.41129
G1 X36.095 Y142.348 E14.44359
G1 X35.581 Y141.523 E14.47592
G1 X35.137 Y140.659 E14.50823
G1 X34.765 Y139.762 E14.54052
G1 X34.469 Y138.837 E14.57283
G1 X34.249 Y137.891 E14.60513
G1 X34.108 Y136.929 E14.63747
G1 X34.047 Y135.96 E14.66976
G1 X34.065 Y134.989 E14.70206
G1 X34.175 Y133.948 E14.73688
G1 X34.279 Y133.291 E14.759
G1 X44.203 Y78.855 E16.59939
G1 X44.339 Y78.164 E16.62282
G1 X44.624 Y77.021 E16.662
G1 X45.454 Y74.283 E16.75716
G1 X46.102 Y71.89 E16.83961
G1 X46.684 Y69.475 E16.92224
G1 X47.213 Y66.968 E17.00746
G1 X47.646 Y64.588 E17.08791
G1 X48.029 Y62.082 E17.17223
G1 X48.332 Y59.639 E17.25411
G1 X48.57 Y57.137 E17.3377
G1 X48.752 Y54.39 E17.42927
G1 F2700 E12.42927
G0 F6000 X48.728 Y59.689
G1 F2700 E17.42927
G1 F1200 X48.968 Y57.168 E17.5135
G1 X49.151 Y54.416 E17.60523
G1 X49.302 Y53.176 E17.64678
G1 X49.369 Y52.799 E17.65951
G1 X49.575 Y51.867 E17.69126
G1 X49.859 Y50.955 E17.72303
G1 X50.218 Y50.071 E17.75476
G1 X50.649 Y49.219 E17.78652
G1 X51.151 Y48.406 E17.8183
G1 X51.718 Y47.639 E17.85002
G1 X52.348 Y46.921 E17.8818
G1 X53.036 Y46.259 E17.91355
G1 X53.777 Y45.656 E17.94533
G1 X54.565 Y45.118 E17.97706
G1 X55.8 Y44.45 E18.02376
G1 X56.769 Y44.001 E18.05928
G1 X92.203 Y28.469 E19.34607
G1 X92.858 Y28.192 E19.36972
G1 X93.752 Y27.858 E19.40147
G1 X94.671 Y27.599 E19.43322
G1 X95.608 Y27.418 E19.46496
G1 X96.558 Y27.316 E19.49674
G1 X97.512 Y27.294 E19.52848
G1 X98.465 Y27.352 E19.56024
G1 X99.41 Y27.489 E19.592
G1 X100.34 Y27.705 E19.62375
G1 X101.249 Y27.998 E19.65552
G1 X102.13 Y28.367 E19.68729
G1 X102.977 Y28.807 E19.71903
G1 X103.784 Y29.317 E19.75078
G1 X104.546 Y29.893 E19.78255
G1 X105.257 Y30.53 E19.8143
G1 X105.912 Y31.225 E19.84607
G1 X106.506 Y31.972 E19.87781
G1 X106.903 Y32.551 E19.90116
G1 X108.361 Y34.831 E19.99117
G1 X109.778 Y36.914 E20.07496
G1 X111.23 Y38.925 E20.15746
G1 X112.772 Y40.935 E20.24172
G1 X114.33 Y42.852 E20.32388
G1 X115.97 Y44.76 E20.40757
G1 X117.661 Y46.616 E20.49108
G1 X119.417 Y48.437 E20.57522
G1 X121.193 Y50.178 E20.65793
G1 X123.033 Y51.882 E20.74134
G1 X124.909 Y53.523 E20.82424
G1 X126.853 Y55.128 E20.90809
G1 X128.823 Y56.664 E20.99118
G1 X130.849 Y58.154 E21.07482
G1 X132.906 Y59.579 E21.15805
G1 X135.033 Y60.964 E21.24247
G1 X136.419 Y61.821 E21.29667
G1 X158.289 Y75.063 E22.14702
G1 X159.032 Y75.528 E22.17617
G1 X159.818 Y76.069 E22.20791
G1 X160.557 Y76.674 E22.23967
G1 X161.239 Y77.334 E22.27124
G1 X161.787 Y77.913 E22.29775
G1 X197.06 Y116.178 E24.02869
G1 X197.651 Y116.836 E24.0581
G1 X198.257 Y117.573 E24.08984
G1 X198.8 Y118.359 E24.12161
G1 X199.275 Y119.187 E24.15336
G1 X199.68 Y120.052 E24.18513
G1 X200.01 Y120.947 E24.21685
G1 X200.265 Y121.868 E24.24864
G1 X200.441 Y122.806 E24.28038
G1 X200.538 Y123.756 E24.31214
G1 X200.556 Y124.71 E24.34388
G1 X200.493 Y125.663 E24.37565
G1 X200.351 Y126.607 E24.4074
G1 X200.131 Y127.536 E24.43915
G1 X199.834 Y128.444 E24.47092
G1 X199.461 Y129.323 E24.50268
G1 X198.897 Y130.369 E24.54221
G1 X155.422 Y201.789 E27.32314
G1 X155.05 Y202.38 E27.34637
G1 X154.508 Y203.166 E27.37812
G1 X153.902 Y203.904 E27.40988
G1 X153.237 Y204.588 E27.44161
G1 X152.516 Y205.215 E27.47339
G1 X151.746 Y205.779 E27.50514
G1 X150.931 Y206.277 E27.5369
G1 X150.077 Y206.704 E27.56866
G1 X149.191 Y207.059 E27.60041
G1 X148.278 Y207.338 E27.63216
G1 X147.345 Y207.54 E27.66391
G1 X146.398 Y207.663 E27.69567
G1 X145.444 Y207.707 E27.72744
G1 X144.49 Y207.67 E27.75919
G1 X143.542 Y207.554 E27.79096
G1 X142.608 Y207.359 E27.82269
G1 X141.693 Y207.087 E27.85444
G1 X140.804 Y206.738 E27.88621
G1 X139.739 Y206.201 E27.92588
G1 X139.184 Y205.879 E27.94722
G1 X40.357 Y145.716 E31.7954
G1 X39.782 Y145.355 E31.81798
G1 X38.996 Y144.814 E31.84971
G1 X38.257 Y144.209 E31.88148
G1 X37.572 Y143.544 E31.91323
G1 X36.944 Y142.824 E31.94501
G1 X36.379 Y142.055 E31.97675
G1 X35.881 Y141.24 E32.00852
G1 X35.452 Y140.387 E32.04027
G1 X35.096 Y139.501 E32.07203
G1 X34.816 Y138.589 E32.10376
G1 X34.613 Y137.656 E32.13552
G1 X34.489 Y136.709 E32.16728
G1 X34.444 Y135.755 E32.19905
G1 X34.479 Y134.801 E32.2308
G1 X34.57 Y134.007 E32.25738
G1 X34.673 Y133.363 E32.27908
G1 X44.596 Y78.933 E34.11926
G1 X44.732 Y78.242 E34.14269
G1 X45.007 Y77.137 E34.18056
G1 X45.837 Y74.398 E34.27575
G1 X46.492 Y71.983 E34.35898
G1 X47.078 Y69.546 E34.44234
G1 X47.596 Y67.092 E34.52576
G1 X48.048 Y64.608 E34.60973
G1 X48.422 Y62.16 E34.6921
G1 X48.728 Y59.689 E34.77491
G1 F2700 E29.77491
G0 F6000 X48.437 Y64.709
G1 F2700 E34.77491
G1 F1200 X48.82 Y62.197 E34.85943
G1 X49.125 Y59.74 E34.94178
G1 X49.367 Y57.196 E35.02677
G1 X49.55 Y54.443 E35.11854
G1 X49.696 Y53.246 E35.15865
G1 X49.763 Y52.869 E35.17138
G1 X49.966 Y51.954 E35.20255
G1 X50.247 Y51.059 E35.23376
G1 X50.602 Y50.191 E35.26495
G1 X51.031 Y49.357 E35.29614
G1 X51.529 Y48.562 E35.32734
G1 X52.093 Y47.812 E35.35855
G1 X52.718 Y47.114 E35.38971
G1 X53.401 Y46.471 E35.42091
G1 X54.136 Y45.888 E35.45212
G1 X54.918 Y45.371 E35.4833
G1 X55.968 Y44.813 E35.52285
G1 X57.146 Y44.27 E35.56599
G1 X92.227 Y28.894 E36.83994
G1 X93.013 Y28.561 E36.86833
G1 X93.892 Y28.233 E36.89954
G1 X94.795 Y27.98 E36.93073
G1 X95.717 Y27.806 E36.96194
G1 X96.65 Y27.711 E36.99313
G1 X97.588 Y27.696 E37.02433
G1 X98.523 Y27.76 E37.0555
G1 X99.45 Y27.905 E37.08671
G1 X100.361 Y28.127 E37.11789
G1 X101.25 Y28.426 E37.14909
G1 X102.11 Y28.8 E37.18028
G1 X102.935 Y29.246 E37.21147
G1 X103.719 Y29.761 E37.24267
G1 X104.457 Y30.34 E37.27387
G1 X105.142 Y30.98 E37.30505
G1 X105.771 Y31.677 E37.33628
G1 X106.566 Y32.767 E37.38115
G1 X108.026 Y35.05 E37.47128
G1 X109.439 Y37.128 E37.55486
G1 X110.917 Y39.174 E37.63881
G1 X112.447 Y41.168 E37.72241
G1 X114.049 Y43.141 E37.80694
G1 X115.654 Y45.007 E37.8888
G1 X117.377 Y46.898 E37.97389
G1 X119.114 Y48.699 E38.05711
G1 X120.924 Y50.473 E38.1414
G1 X122.764 Y52.177 E38.22481
G1 X124.658 Y53.835 E38.30853
G1 X126.594 Y55.433 E38.39203
G1 X128.585 Y56.986 E38.47601
G1 X130.606 Y58.471 E38.55943
G1 X132.689 Y59.915 E38.64373
G1 X134.836 Y61.313 E38.72894
G1 X136.211 Y62.163 E38.7827
G1 X158.081 Y75.405 E39.63305
G1 X158.819 Y75.867 E39.66201
G1 X159.591 Y76.399 E39.69319
G1 X160.316 Y76.994 E39.72439
G1 X160.949 Y77.61 E39.75377
G1 X161.493 Y78.184 E39.78007
G1 X196.766 Y116.449 E41.511
G1 X197.353 Y117.103 E41.54023
G1 X197.948 Y117.827 E41.5714
G1 X198.48 Y118.6 E41.60261
G1 X198.943 Y119.415 E41.63378
G1 X199.336 Y120.267 E41.66499
G1 X199.655 Y121.149 E41.69619
G1 X199.897 Y122.055 E41.72738
G1 X200.061 Y122.979 E41.75859
G1 X200.146 Y123.913 E41.78978
G1 X200.151 Y124.85 E41.82095
G1 X200.077 Y125.785 E41.85214
G1 X199.923 Y126.71 E41.88333
G1 X199.69 Y127.619 E41.91454
G1 X199.381 Y128.505 E41.94575
G1 X198.998 Y129.361 E41.97694
G1 X198.555 Y130.161 E42.00736
G1 X155.083 Y201.576 E44.7881
G1 X154.711 Y202.167 E44.81132
G1 X154.178 Y202.938 E44.8425
G1 X153.582 Y203.662 E44.87369
G1 X152.925 Y204.332 E44.9049
G1 X152.214 Y204.944 E44.9361
G1 X151.454 Y205.493 E44.96728
G1 X150.649 Y205.975 E44.99849
G1 X149.807 Y206.387 E45.02967
G1 X148.932 Y206.725 E45.06087
G1 X148.032 Y206.988 E45.09205
G1 X147.113 Y207.173 E45.12323
G1 X146.181 Y207.279 E45.15443
G1 X145.243 Y207.306 E45.18564
G1 X144.307 Y207.252 E45.21682
G1 X143.379 Y207.119 E45.248
G1 X142.465 Y206.908 E45.2792
G1 X141.573 Y206.619 E45.31039
G1 X140.708 Y206.255 E45.3416
G1 X139.937 Y205.854 E45.37051
G1 X139.392 Y205.537 E45.39148
G1 X40.57 Y145.377 E49.23946
G1 X39.995 Y145.016 E49.26205
G1 X39.223 Y144.484 E49.29323
G1 X38.499 Y143.888 E49.32442
G1 X37.828 Y143.233 E49.35561
G1 X37.215 Y142.522 E49.38683
G1 X36.665 Y141.763 E49.41801
G1 X36.182 Y140.959 E49.4492
G1 X35.77 Y140.117 E49.48038
G1 X35.43 Y139.242 E49.5116
G1 X35.166 Y138.342 E49.5428
G1 X34.98 Y137.423 E49.57398
G1 X34.873 Y136.491 E49.60518
G1 X34.845 Y135.554 E49.63636
G1 X34.897 Y134.618 E49.66754
G1 X34.966 Y134.066 E49.68605
G1 X35.066 Y133.434 E49.70733
G1 X44.988 Y79.01 E51.54731
G1 X45.124 Y78.319 E51.57074
G1 X45.39 Y77.253 E51.60728
G1 X46.217 Y74.522 E51.70219
G1 X46.884 Y72.063 E51.78693
G1 X47.465 Y69.651 E51.86945
G1 X47.995 Y67.14 E51.9548
G1 X48.437 Y64.709 E52.03698
G1 F2700 E47.03698
G0 F6000 X47.851 Y69.754
G1 F2700 E52.03698
G1 F1200 X48.386 Y67.222 E52.12306
G1 X48.832 Y64.769 E52.20598
G1 X49.219 Y62.235 E52.29124
G1 X49.526 Y59.756 E52.37432
G1 X49.764 Y57.262 E52.45765
G1 X49.949 Y54.469 E52.55075
G1 X50.09 Y53.316 E52.58938
G1 X50.157 Y52.939 E52.60212
G1 X50.357 Y52.041 E52.63272
G1 X50.634 Y51.163 E52.66334
G1 X50.987 Y50.312 E52.69398
G1 X51.412 Y49.496 E52.72458
G1 X51.906 Y48.719 E52.75521
G1 X52.466 Y47.988 E52.78583
G1 X53.088 Y47.309 E52.81646
G1 X53.765 Y46.686 E52.84706
G1 X54.495 Y46.124 E52.8777
G1 X55.27 Y45.627 E52.90832
G1 X56.137 Y45.176 E52.94083
G1 X57.106 Y44.727 E52.97635
G1 X92.514 Y29.206 E54.2622
G1 X93.169 Y28.929 E54.28585
G1 X94.032 Y28.608 E54.31648
G1 X94.919 Y28.362 E54.34709
G1 X95.825 Y28.195 E54.37774
G1 X96.741 Y28.107 E54.40834
G1 X97.662 Y28.098 E54.43898
G1 X98.58 Y28.17 E54.4696
G1 X99.488 Y28.321 E54.50022
G1 X100.379 Y28.55 E54.53082
G1 X101.248 Y28.855 E54.56145
G1 X102.087 Y29.235 E54.59208
G1 X102.889 Y29.686 E54.62268
G1 X103.649 Y30.206 E54.65331
G1 X104.362 Y30.789 E54.68395
G1 X105.021 Y31.431 E54.71455
G1 X105.622 Y32.129 E54.74518
G1 X106.229 Y32.982 E54.78
G1 X107.701 Y35.285 E54.87091
G1 X109.1 Y37.341 E54.95362
G1 X110.608 Y39.428 E55.03926
G1 X112.134 Y41.418 E55.12267
G1 X113.734 Y43.387 E55.20705
G1 X115.371 Y45.292 E55.29059
G1 X117.076 Y47.163 E55.37479
G1 X118.829 Y48.98 E55.45876
G1 X120.637 Y50.752 E55.54296
G1 X122.511 Y52.488 E55.62793
G1 X124.385 Y54.128 E55.71075
G1 X126.36 Y55.759 E55.79594
G1 X128.331 Y57.296 E55.87908
G1 X130.381 Y58.802 E55.96368
G1 X132.473 Y60.252 E56.04834
G1 X134.589 Y61.63 E56.13233
G1 X136.09 Y62.558 E56.19102
G1 X157.874 Y75.748 E57.03803
G1 X158.606 Y76.206 E57.06674
G1 X159.364 Y76.728 E57.09736
G1 X160.074 Y77.315 E57.128
G1 X160.659 Y77.885 E57.15516
G1 X161.092 Y78.341 E57.17608
G1 X196.574 Y116.833 E58.91727
G1 X197.055 Y117.37 E58.94125
G1 X197.639 Y118.081 E58.97185
G1 X198.159 Y118.841 E59.00248
G1 X198.611 Y119.643 E59.0331
G1 X198.991 Y120.482 E59.06373
G1 X199.298 Y121.35 E59.09436
G1 X199.528 Y122.241 E59.12496
G1 X199.68 Y123.149 E59.15558
G1 X199.752 Y124.067 E59.18621
G1 X199.745 Y124.988 E59.21684
G1 X199.658 Y125.904 E59.24745
G1 X199.491 Y126.81 E59.27809
G1 X199.247 Y127.697 E59.30869
G1 X198.926 Y128.56 E59.33931
G1 X198.532 Y129.392 E59.36993
G1 X198.213 Y129.954 E59.39142
G1 X154.745 Y201.363 E62.17192
G1 X154.373 Y201.954 E62.19515
G1 X153.849 Y202.711 E62.22577
G1 X153.261 Y203.42 E62.2564
G1 X152.615 Y204.075 E62.287
G1 X151.913 Y204.671 E62.31763
G1 X151.163 Y205.205 E62.34825
G1 X150.369 Y205.671 E62.37887
G1 X149.538 Y206.067 E62.40949
G1 X148.676 Y206.389 E62.4401
G1 X147.788 Y206.635 E62.47074
G1 X146.883 Y206.803 E62.50136
G1 X145.967 Y206.892 E62.53197
G1 X145.046 Y206.901 E62.5626
G1 X144.128 Y206.83 E62.59323
G1 X143.22 Y206.68 E62.62384
G1 X142.328 Y206.452 E62.65446
G1 X141.46 Y206.147 E62.68506
G1 X140.621 Y205.767 E62.71569
G1 X140.136 Y205.506 E62.73401
G1 X139.6 Y205.195 E62.75462
G1 X40.783 Y145.038 E66.60241
G1 X40.208 Y144.677 E66.62499
G1 X39.45 Y144.154 E66.65562
G1 X38.741 Y143.568 E66.68622
G1 X38.085 Y142.922 E66.71684
G1 X37.487 Y142.221 E66.74749
G1 X36.953 Y141.471 E66.77811
G1 X36.486 Y140.678 E66.80872
G1 X36.089 Y139.847 E66.83935
G1 X35.766 Y138.985 E66.86996
G1 X35.519 Y138.098 E66.90059
G1 X35.35 Y137.193 E66.93121
G1 X35.26 Y136.277 E66.96182
G1 X35.25 Y135.357 E66.99242
G1 X35.362 Y134.126 E67.03354
G1 X35.46 Y133.506 E67.05441
G1 X45.381 Y79.087 E68.89423
G1 X45.517 Y78.396 E68.91765
G1 X45.772 Y77.369 E68.95285
G1 X46.609 Y74.606 E69.04887
G1 X47.27 Y72.169 E69.13285
G1 X47.851 Y69.754 E69.21547
G1 F2700 E64.21547
G0 F6000 X46.99 Y74.73
G1 F2700 E69.21547
G1 F1200 X47.652 Y72.286 E69.29969
G1 X48.253 Y69.792 E69.38501
G1 X48.778 Y67.305 E69.46955
G1 X49.228 Y64.83 E69.55322
G1 X49.613 Y62.309 E69.63804
G1 X49.923 Y59.811 E69.72176
G1 X50.163 Y57.291 E69.80596
G1 X50.348 Y54.496 E69.89912
G1 X50.483 Y53.386 E69.93631
G1 X50.55 Y53.009 E69.94905
