;FLAVOR:Marlin
;TIME:13446
;Filament used: 8.08379m
;Layer height: 0.2
;MINX:23.854
;MINY:37.812
;MINZ:0.2
;MAXX:211.122
;MAXY:197.179
;MAXZ:4
;Generated with Cura_SteamEngine main
M140 S50
M105
M190 S50
M104 S200
M105
M109 S200
M82 ;absolute extrusion mode
; Ender 3 Custom Start G-code
G92 E0 ; Reset Extruder
G28 ; Home all axes
G1 Z2.0 F3000 ; Move Z Axis up little to prevent scratching of Heat Bed
G1 X0.1 Y20 Z0.3 F5000.0 ; Move to start position
G1 X0.1 Y200.0 Z0.3 F1500.0 E15 ; Draw the first line
G1 X0.4 Y200.0 Z0.3 F5000.0 ; Move to side a little
G1 X0.4 Y20 Z0.3 F1500.0 E30 ; Draw the second line
G92 E0 ; Reset Extruder
G1 Z2.0 F3000 ; Move Z Axis up little to prevent scratching of Heat Bed
G1 X5 Y20 Z0.3 F5000.0 ; Move over to prevent blob squish
G92 E0
G92 E0
G1 F2700 E-5
;LAYER_COUNT:20
;LAYER:0
M107
G0 F6000 X50.602 Y71.297 Z0.2
G0 X47.451 Y73.908
;TYPE:SKIRT
G1 F2700 E0
G1 F1200 X49.648 Y72.031 E0.09611
G1 X50.602 Y71.297 E0.13614
G1 X51.295 Y70.819 E0.16414
G1 X96.695 Y40.197 E1.98553
G1 X97.391 Y39.74 E2.01323
G1 X98.225 Y39.242 E2.04553
G1 X99.097 Y38.814 E2.07784
G1 X100.001 Y38.459 E2.11014
G1 X100.931 Y38.18 E2.14244
G1 X101.882 Y37.978 E2.17477
G1 X102.845 Y37.855 E2.20706
G1 X103.816 Y37.812 E2.23939
G1 X104.786 Y37.849 E2.27168
G1 X105.751 Y37.965 E2.304
G1 X106.702 Y38.161 E2.3363
G1 X107.635 Y38.434 E2.36863
G1 X108.541 Y38.782 E2.40091
G1 X109.416 Y39.205 E2.43324
G1 X110.287 Y39.719 E2.46688
G1 X110.866 Y40.104 E2.49
G1 X205.64 Y106.467 E6.33815
G1 X206.242 Y106.902 E6.36285
G1 X207.005 Y107.503 E6.39516
G1 X207.717 Y108.164 E6.42747
G1 X208.371 Y108.882 E6.45978
G1 X208.964 Y109.651 E6.49207
G1 X209.492 Y110.467 E6.5244
G1 X209.951 Y111.323 E6.55671
G1 X210.338 Y112.214 E6.58901
G1 X210.651 Y113.133 E6.62131
G1 X210.886 Y114.076 E6.65363
G1 X211.044 Y115.034 E6.68592
G1 X211.122 Y116.003 E6.71826
G1 X211.12 Y116.974 E6.75055
G1 X211.038 Y117.942 E6.78286
G1 X210.877 Y118.9 E6.81517
G1 X210.638 Y119.841 E6.84746
G1 X210.322 Y120.76 E6.87979
G1 X209.932 Y121.649 E6.91207
G1 X209.469 Y122.504 E6.94441
G1 X209.188 Y122.953 E6.96203
G1 X208.791 Y123.547 E6.98579
G1 X161.063 Y191.706 E9.75331
G1 X160.641 Y192.291 E9.7773
G1 X160.041 Y193.055 E9.80961
G1 X159.38 Y193.767 E9.84193
G1 X158.662 Y194.422 E9.87425
G1 X157.894 Y195.016 E9.90654
G1 X157.079 Y195.544 E9.93884
G1 X156.223 Y196.004 E9.97116
G1 X155.332 Y196.392 E10.00349
G1 X154.413 Y196.705 E10.03578
G1 X153.47 Y196.941 E10.06811
G1 X152.512 Y197.1 E10.10041
G1 X151.544 Y197.179 E10.13271
G1 X150.572 Y197.177 E10.16504
G1 X149.604 Y197.097 E10.19734
G1 X148.646 Y196.936 E10.22965
G1 X147.631 Y196.675 E10.26451
G1 X147.02 Y196.481 E10.28583
G1 X97.398 Y179.397 E12.03134
G1 X96.58 Y179.103 E12.06025
G1 X95.68 Y178.736 E12.09258
G1 X94.814 Y178.297 E12.12487
G1 X93.901 Y177.728 E12.16065
G1 X93.215 Y177.256 E12.18835
G1 X72.426 Y162.626 E13.03385
G1 X70.258 Y161.144 E13.1212
G1 X68.193 Y159.818 E13.20282
G1 X66.031 Y158.516 E13.28676
G1 X63.879 Y157.301 E13.36896
G1 X61.688 Y156.142 E13.4514
G1 X59.413 Y155.022 E13.53574
G1 X57.154 Y153.987 E13.61838
G1 X54.888 Y153.027 E13.70023
G1 X52.528 Y152.103 E13.78453
G1 X50.178 Y151.26 E13.86757
G1 X47.82 Y150.488 E13.95009
G1 X45.435 Y149.782 E14.03282
G1 X43.039 Y149.145 E14.11528
G1 X40.565 Y148.562 E14.19982
G1 X38.139 Y148.063 E14.2822
G1 X35.682 Y147.629 E14.36518
G1 X33.822 Y147.334 E14.42782
G1 X32.869 Y147.144 E14.46014
G1 X31.936 Y146.875 E14.49244
G1 X31.028 Y146.53 E14.52474
G1 X30.151 Y146.112 E14.55705
G1 X29.311 Y145.624 E14.58937
G1 X28.515 Y145.067 E14.62168
G1 X27.767 Y144.448 E14.65397
G1 X27.072 Y143.769 E14.68629
G1 X26.436 Y143.035 E14.71859
G1 X25.862 Y142.251 E14.75091
G1 X25.355 Y141.422 E14.78323
G1 X24.918 Y140.555 E14.81552
G1 X24.553 Y139.655 E14.84782
G1 X24.264 Y138.727 E14.88015
G1 X24.051 Y137.779 E14.91247
G1 X23.918 Y136.817 E14.94477
G1 X23.867 Y135.999 E14.97203
G1 X23.854 Y135.347 E14.99372
G1 X23.855 Y96.141 E16.29771
G1 X23.865 Y95.439 E16.32107
G1 X23.919 Y94.469 E16.35338
G1 X24.052 Y93.507 E16.38568
G1 X24.264 Y92.559 E16.41799
G1 X24.554 Y91.632 E16.45029
G1 X24.918 Y90.731 E16.48261
G1 X25.356 Y89.864 E16.51492
G1 X25.863 Y89.036 E16.54721
G1 X26.437 Y88.252 E16.57953
G1 X27.073 Y87.518 E16.61183
G1 X27.768 Y86.838 E16.64417
G1 X28.516 Y86.219 E16.67647
G1 X29.082 Y85.813 E16.69963
G1 X29.39 Y85.606 E16.71198
G1 X30.529 Y84.93 E16.75603
G1 X33.017 Y83.637 E16.84929
G1 X35.224 Y82.406 E16.93334
G1 X37.327 Y81.155 E17.01473
G1 X39.458 Y79.805 E17.09863
G1 X41.52 Y78.414 E17.18136
G1 X43.531 Y76.974 E17.26362
G1 X45.542 Y75.446 E17.34763
G1 X47.451 Y73.908 E17.42916
G1 F2700 E12.42916
G0 F6000 X43.76 Y77.302
G1 F2700 E17.42916
G1 F1200 X45.789 Y75.759 E17.51394
G1 X47.736 Y74.191 E17.59709
G1 X49.908 Y72.336 E17.69209
G1 X50.83 Y71.626 E17.7308
G1 X51.518 Y71.151 E17.7586
G1 X96.918 Y40.529 E19.57999
G1 X97.61 Y40.075 E19.60752
G1 X98.43 Y39.586 E19.63928
G1 X99.288 Y39.167 E19.67103
G1 X100.178 Y38.821 E19.70279
G1 X101.094 Y38.551 E19.73456
G1 X102.029 Y38.359 E19.7663
G1 X102.977 Y38.246 E19.79806
G1 X103.931 Y38.212 E19.82981
G1 X104.885 Y38.259 E19.86158
G1 X105.831 Y38.385 E19.89332
G1 X106.764 Y38.589 E19.92508
G1 X107.676 Y38.871 E19.95683
G1 X108.561 Y39.229 E19.98858
G1 X109.414 Y39.659 E20.02036
G1 X110.069 Y40.055 E20.04581
G1 X110.637 Y40.432 E20.06849
G1 X205.406 Y106.791 E23.91643
G1 X206.008 Y107.226 E23.94113
G1 X206.758 Y107.817 E23.97289
G1 X207.455 Y108.469 E24.00463
G1 X208.096 Y109.177 E24.0364
G1 X208.675 Y109.936 E24.06815
G1 X209.189 Y110.74 E24.09989
G1 X209.633 Y111.585 E24.13164
G1 X210.006 Y112.465 E24.16343
G1 X210.303 Y113.372 E24.19517
G1 X210.524 Y114.301 E24.22693
G1 X210.665 Y115.245 E24.25868
G1 X210.728 Y116.198 E24.29044
G1 X210.71 Y117.152 E24.32218
G1 X210.613 Y118.102 E24.35394
G1 X210.436 Y119.041 E24.38572
G1 X210.182 Y119.961 E24.41746
G1 X209.852 Y120.857 E24.44922
G1 X209.447 Y121.722 E24.48099
G1 X208.854 Y122.733 E24.51997
G1 X208.463 Y123.318 E24.54338
G1 X160.738 Y191.472 E27.3107
G1 X160.316 Y192.057 E27.33469
G1 X159.726 Y192.808 E27.36646
G1 X159.075 Y193.506 E27.3982
G1 X158.367 Y194.147 E27.42997
G1 X157.609 Y194.727 E27.46171
G1 X156.804 Y195.241 E27.49348
G1 X155.96 Y195.687 E27.52523
G1 X155.081 Y196.059 E27.55698
G1 X154.174 Y196.358 E27.58874
G1 X153.245 Y196.579 E27.6205
G1 X152.301 Y196.721 E27.65225
G1 X151.348 Y196.785 E27.68402
G1 X150.394 Y196.768 E27.71575
G1 X149.444 Y196.671 E27.74752
G1 X148.505 Y196.496 E27.77928
G1 X147.748 Y196.293 E27.80535
G1 X147.15 Y196.103 E27.82622
G1 X97.369 Y178.963 E29.57734
G1 X96.715 Y178.727 E29.60046
G1 X95.832 Y178.366 E29.63219
G1 X94.981 Y177.932 E29.66396
G1 X94.127 Y177.399 E29.69745
G1 X93.445 Y176.929 E29.72499
G1 X72.595 Y162.256 E30.57298
G1 X70.519 Y160.837 E30.65661
G1 X68.384 Y159.466 E30.741
G1 X66.254 Y158.183 E30.82371
G1 X64.068 Y156.949 E30.9072
G1 X61.845 Y155.773 E30.99085
G1 X59.606 Y154.671 E31.07385
G1 X57.311 Y153.62 E31.1578
G1 X55.01 Y152.644 E31.24093
G1 X52.703 Y151.742 E31.32332
G1 X50.3 Y150.879 E31.40824
G1 X47.953 Y150.111 E31.49038
G1 X45.537 Y149.395 E31.57419
G1 X43.095 Y148.747 E31.65822
G1 X40.665 Y148.174 E31.74126
G1 X38.224 Y147.672 E31.82415
G1 X35.768 Y147.238 E31.9071
G1 X33.884 Y146.939 E31.97054
G1 X32.948 Y146.751 E32.0023
G1 X32.031 Y146.485 E32.03405
G1 X31.14 Y146.143 E32.0658
G1 X30.28 Y145.728 E32.09756
G1 X29.458 Y145.242 E32.12932
G1 X28.679 Y144.69 E32.16107
G1 X27.95 Y144.074 E32.19282
G1 X27.275 Y143.399 E32.22457
G1 X26.658 Y142.67 E32.25633
G1 X26.105 Y141.892 E32.28808
G1 X25.618 Y141.07 E32.31986
G1 X25.202 Y140.211 E32.3516
G1 X24.86 Y139.319 E32.38338
G1 X24.593 Y138.403 E32.41511
G1 X24.404 Y137.467 E32.44687
G1 X24.294 Y136.518 E32.47865
G1 X24.267 Y135.988 E32.4963
G1 X24.254 Y135.347 E32.51762
G1 X24.255 Y96.147 E33.82142
G1 X24.265 Y95.445 E33.84477
G1 X24.319 Y94.491 E33.87655
G1 X24.452 Y93.546 E33.90829
G1 X24.664 Y92.615 E33.94005
G1 X24.953 Y91.705 E33.9718
G1 X25.317 Y90.822 E34.00357
G1 X25.753 Y89.973 E34.03531
G1 X26.26 Y89.164 E34.06707
G1 X26.832 Y88.399 E34.09884
G1 X27.466 Y87.686 E34.13057
G1 X28.157 Y87.027 E34.16233
G1 X28.902 Y86.429 E34.19411
G1 X29.613 Y85.938 E34.22284
G1 X30.714 Y85.285 E34.26542
G1 X33.217 Y83.984 E34.35924
G1 X35.376 Y82.78 E34.44146
G1 X37.565 Y81.477 E34.52619
G1 X39.674 Y80.142 E34.60921
G1 X41.747 Y78.744 E34.69237
G1 X43.76 Y77.302 E34.77473
G1 F2700 E29.77473
G0 F6000 X39.866 Y80.494
G1 F2700 E34.77473
G1 F1200 X41.982 Y79.068 E34.8596
G1 X44.013 Y77.613 E34.9427
G1 X46.019 Y76.088 E35.02651
G1 X47.997 Y74.494 E35.111
G1 X50.168 Y72.64 E35.20595
G1 X51.057 Y71.955 E35.24328
G1 X51.637 Y71.554 E35.26673
G1 X97.267 Y40.777 E37.09735
G1 X97.829 Y40.409 E37.11969
G1 X98.635 Y39.93 E37.15088
G1 X99.479 Y39.52 E37.18208
G1 X100.354 Y39.184 E37.21326
G1 X101.255 Y38.924 E37.24445
G1 X102.175 Y38.741 E37.27565
G1 X103.107 Y38.637 E37.30684
G1 X104.045 Y38.614 E37.33805
G1 X104.981 Y38.67 E37.36923
G1 X105.909 Y38.805 E37.40042
G1 X106.822 Y39.02 E37.43162
G1 X107.714 Y39.311 E37.46283
G1 X108.577 Y39.677 E37.49401
G1 X109.406 Y40.115 E37.52519
G1 X109.851 Y40.39 E37.54259
G1 X110.407 Y40.759 E37.56478
G1 X205.172 Y107.115 E41.41255
G1 X205.774 Y107.55 E41.43726
G1 X206.51 Y108.131 E41.46845
G1 X207.194 Y108.773 E41.49965
G1 X207.82 Y109.471 E41.53083
G1 X208.385 Y110.219 E41.56201
G1 X208.884 Y111.013 E41.5932
G1 X209.314 Y111.847 E41.62441
G1 X209.671 Y112.714 E41.65559
G1 X209.953 Y113.609 E41.6868
G1 X210.158 Y114.524 E41.71799
G1 X210.284 Y115.453 E41.74917
G1 X210.331 Y116.39 E41.78038
G1 X210.297 Y117.327 E41.81156
G1 X210.184 Y118.258 E41.84276
G1 X209.992 Y119.176 E41.87395
G1 X209.722 Y120.074 E41.90514
G1 X209.377 Y120.947 E41.93636
G1 X208.959 Y121.786 E41.96754
G1 X208.52 Y122.513 E41.99578
G1 X208.136 Y123.088 E42.01878
G1 X160.414 Y191.238 E44.78594
G1 X159.992 Y191.823 E44.80993
G1 X159.411 Y192.56 E44.84114
G1 X158.77 Y193.244 E44.87232
G1 X158.073 Y193.872 E44.90352
G1 X157.325 Y194.437 E44.9347
G1 X156.531 Y194.937 E44.96591
G1 X155.698 Y195.367 E44.99709
G1 X154.831 Y195.725 E45.02829
G1 X153.937 Y196.008 E45.05948
G1 X153.022 Y196.214 E45.09067
G1 X152.093 Y196.34 E45.12185
G1 X151.156 Y196.388 E45.15306
G1 X150.219 Y196.355 E45.18424
G1 X149.288 Y196.242 E45.21544
G1 X148.369 Y196.051 E45.24665
G1 X147.864 Y195.91 E45.26409
G1 X147.28 Y195.725 E45.28447
G1 X97.658 Y178.641 E47.02998
G1 X96.851 Y178.351 E47.0585
G1 X95.983 Y177.995 E47.0897
G1 X95.149 Y177.567 E47.12088
G1 X94.354 Y177.069 E47.15208
G1 X93.675 Y176.602 E47.17949
G1 X72.845 Y161.943 E48.02666
G1 X70.714 Y160.487 E48.1125
G1 X68.611 Y159.136 E48.19564
G1 X66.452 Y157.835 E48.27948
G1 X64.245 Y156.59 E48.36376
G1 X62.044 Y155.425 E48.44659
G1 X59.77 Y154.306 E48.53088
G1 X57.484 Y153.259 E48.61451
G1 X55.164 Y152.275 E48.69833
G1 X52.816 Y151.357 E48.78218
G1 X50.444 Y150.505 E48.86601
G1 X48.054 Y149.723 E48.94964
G1 X45.648 Y149.01 E49.03311
G1 X43.226 Y148.367 E49.11645
G1 X40.732 Y147.78 E49.20167
G1 X38.296 Y147.278 E49.2844
G1 X35.831 Y146.843 E49.36765
G1 X33.947 Y146.544 E49.4311
G1 X33.027 Y146.359 E49.46231
G1 X32.127 Y146.095 E49.4935
G1 X31.253 Y145.756 E49.52468
G1 X30.41 Y145.344 E49.55589
G1 X29.606 Y144.861 E49.58709
G1 X28.846 Y144.312 E49.61827
G1 X28.135 Y143.7 E49.64947
G1 X27.48 Y143.03 E49.68063
G1 X26.883 Y142.306 E49.71185
G1 X26.351 Y141.534 E49.74303
G1 X25.886 Y140.719 E49.77424
G1 X25.492 Y139.868 E49.80543
G1 X25.172 Y138.986 E49.83664
G1 X24.928 Y138.081 E49.86781
G1 X24.763 Y137.158 E49.899
G1 X24.667 Y135.977 E49.93841
G1 X24.654 Y135.347 E49.95936
G1 X24.655 Y96.152 E51.263
G1 X24.665 Y95.45 E51.28635
G1 X24.718 Y94.514 E51.31753
G1 X24.851 Y93.586 E51.34871
G1 X25.063 Y92.672 E51.37992
G1 X25.351 Y91.779 E51.41112
G1 X25.715 Y90.915 E51.44231
G1 X26.151 Y90.084 E51.47352
G1 X26.656 Y89.294 E51.5047
G1 X27.226 Y88.55 E51.53588
G1 X27.858 Y87.857 E51.56707
G1 X28.547 Y87.22 E51.59828
G1 X29.528 Y86.477 E51.63921
G1 X29.836 Y86.27 E51.65155
G1 X30.898 Y85.64 E51.69262
G1 X33.405 Y84.337 E51.7866
G1 X35.596 Y83.115 E51.87004
G1 X37.779 Y81.816 E51.95453
G1 X39.866 Y80.494 E52.0367
G1 F2700 E47.0367
G0 F6000 X35.774 Y83.475
G1 F2700 E52.0367
G1 F1200 X37.966 Y82.17 E52.12154
G1 X40.106 Y80.815 E52.20579
G1 X42.209 Y79.397 E52.29015
G1 X44.259 Y77.928 E52.37403
G1 X46.25 Y76.415 E52.4572
G1 X48.263 Y74.794 E52.54317
G1 X50.428 Y72.944 E52.63788
G1 X51.285 Y72.284 E52.67386
G1 X51.966 Y71.814 E52.70138
G1 X97.486 Y41.112 E54.52757
G1 X98.048 Y40.744 E54.54991
G1 X98.84 Y40.274 E54.58054
G1 X99.669 Y39.874 E54.61115
G1 X100.53 Y39.547 E54.64179
G1 X101.416 Y39.297 E54.67241
G1 X102.32 Y39.124 E54.70302
G1 X103.236 Y39.03 E54.73365
G1 X104.156 Y39.016 E54.76425
G1 X105.075 Y39.082 E54.79489
G1 X105.984 Y39.228 E54.82551
G1 X106.877 Y39.452 E54.85614
G1 X107.747 Y39.752 E54.88674
G1 X108.588 Y40.127 E54.91737
G1 X109.633 Y40.725 E54.95742
G1 X110.178 Y41.087 E54.97918
G1 X204.937 Y107.439 E58.82671
G1 X205.539 Y107.874 E58.85141
G1 X206.261 Y108.445 E58.88203
G1 X206.931 Y109.077 E58.91266
G1 X207.544 Y109.764 E58.94328
G1 X208.094 Y110.502 E58.9739
G1 X208.579 Y111.285 E59.00453
G1 X208.993 Y112.107 E59.03514
G1 X209.335 Y112.962 E59.06577
G1 X209.601 Y113.843 E59.09638
G1 X209.79 Y114.744 E59.127
G1 X209.9 Y115.658 E59.15762
G1 X209.93 Y116.579 E59.18827
G1 X209.881 Y117.498 E59.21888
G1 X209.751 Y118.409 E59.24948
G1 X209.543 Y119.306 E59.28011
G1 X209.258 Y120.182 E59.31075
G1 X208.899 Y121.029 E59.34135
G1 X208.466 Y121.842 E59.37198
G1 X208.185 Y122.293 E59.38966
G1 X207.808 Y122.859 E59.41228
G1 X160.09 Y191.004 E62.17922
G1 X159.668 Y191.589 E62.20321
G1 X159.097 Y192.312 E62.23385
G1 X158.466 Y192.982 E62.26447
G1 X157.779 Y193.595 E62.29509
G1 X157.042 Y194.146 E62.32569
G1 X156.259 Y194.631 E62.35633
G1 X155.438 Y195.047 E62.38694
G1 X154.583 Y195.389 E62.41757
G1 X153.702 Y195.656 E62.44819
G1 X152.801 Y195.846 E62.47881
G1 X151.887 Y195.957 E62.50944
G1 X150.967 Y195.987 E62.54005
G1 X150.048 Y195.938 E62.57066
G1 X149.136 Y195.81 E62.60129
G1 X147.981 Y195.528 E62.64084
G1 X147.41 Y195.347 E62.66076
G1 X97.788 Y178.263 E64.40627
G1 X96.987 Y177.975 E64.43458
G1 X96.135 Y177.625 E64.46521
G1 X95.317 Y177.202 E64.49584
G1 X94.58 Y176.739 E64.52479
G1 X93.905 Y176.275 E64.55204
G1 X73.062 Y161.607 E65.39973
G1 X70.934 Y160.153 E65.48545
G1 X68.818 Y158.794 E65.5691
G1 X66.634 Y157.478 E65.65391
G1 X64.478 Y156.261 E65.73625
G1 X62.201 Y155.057 E65.82192
G1 X59.935 Y153.941 E65.90593
G1 X57.641 Y152.89 E65.98986
G1 X55.317 Y151.905 E66.07381
G1 X52.992 Y150.995 E66.15685
G1 X50.566 Y150.125 E66.24257
G1 X48.177 Y149.342 E66.32619
G1 X45.76 Y148.627 E66.41002
G1 X43.315 Y147.977 E66.49417
G1 X40.833 Y147.393 E66.57897
G1 X38.341 Y146.88 E66.6636
G1 X35.888 Y146.447 E66.74645
G1 X34.009 Y146.149 E66.80972
G1 X33.107 Y145.966 E66.84033
G1 X32.224 Y145.706 E66.87095
G1 X31.367 Y145.369 E66.90158
G1 X30.542 Y144.96 E66.9322
G1 X29.756 Y144.481 E66.96282
G1 X29.015 Y143.935 E66.99343
G1 X28.323 Y143.327 E67.02407
G1 X27.687 Y142.661 E67.0547
G1 X27.112 Y141.943 E67.08529
G1 X26.6 Y141.177 E67.11594
G1 X26.157 Y140.37 E67.14656
G1 X25.786 Y139.527 E67.17719
G1 X25.49 Y138.656 E67.20779
G1 X25.27 Y137.762 E67.23841
G1 X25.128 Y136.852 E67.26904
G1 X25.067 Y135.966 E67.29858
G1 X25.054 Y135.347 E67.31917
G1 X25.055 Y96.158 E68.6226
G1 X25.065 Y95.456 E68.64596
G1 X25.118 Y94.537 E68.67657
G1 X25.251 Y93.626 E68.70719
G1 X25.462 Y92.73 E68.73781
G1 X25.75 Y91.855 E68.76845
G1 X26.113 Y91.009 E68.79907
G1 X26.548 Y90.198 E68.82968
G1 X27.052 Y89.427 E68.86031
G1 X27.62 Y88.703 E68.89092
G1 X28.25 Y88.031 E68.92156
G1 X28.935 Y87.417 E68.95215
G1 X29.751 Y86.809 E68.986
G1 X30.059 Y86.602 E68.99834
G1 X31.083 Y85.995 E69.03793
G1 X33.605 Y84.684 E69.13247
G1 X35.774 Y83.475 E69.21506
G1 F2700 E64.21506
G0 F6000 X25.455 Y96.164
G1 F2700 E69.21506
G1 F1200 X25.465 Y95.462 E69.23841
G1 X25.518 Y94.56 E69.26847
G1 X25.65 Y93.667 E69.29849
G1 X25.861 Y92.789 E69.32852
G1 X26.149 Y91.933 E69.35856
G1 X26.511 Y91.105 E69.38862
