;FLAVOR:Marlin
;TIME:16840
;Filament used: 11.9824m
;Layer height: 0.2
;MINX:34.044
;MINY:26.902
;MINZ:0.2
;MAXX:200.945
;MAXY:208.106
;MAXZ:13.6
;Generated with Cura_SteamEngine main
M140 S50
M105
M190 S50
M104 S200
M105
M109 S200
M82 ;absolute extrusion mode
; Ender 3 Custom Start G-code
G92 E0 ; Reset Extruder
G28 ; Home all axes
G1 Z2.0 F3000 ; Move Z Axis up little to prevent scratching of Heat Bed
G1 X0.1 Y20 Z0.3 F5000.0 ; Move to start position
G1 X0.1 Y200.0 Z0.3 F1500.0 E15 ; Draw the first line
G1 X0.4 Y200.0 Z0.3 F5000.0 ; Move to side a little
G1 X0.4 Y20 Z0.3 F1500.0 E30 ; Draw the second line
G92 E0 ; Reset Extruder
G1 Z2.0 F3000 ; Move Z Axis up little to prevent scratching of Heat Bed
G1 X5 Y20 Z0.3 F5000.0 ; Move over to prevent blob squish
G92 E0
G92 E0
G1 F2700 E-5
;LAYER_COUNT:68
;LAYER:0
M107
G0 F6000 X40.002 Y89.03 Z0.2
G0 X34.044 Y99.318
;TYPE:SKIRT
G1 F2700 E0
G1 F1200 X34.083 Y98.347 E0.03232
G1 X34.201 Y97.383 E0.06462
G1 X34.398 Y96.432 E0.09693
G1 X34.673 Y95.5 E0.12925
G1 X35.023 Y94.594 E0.16155
G1 X35.447 Y93.72 E0.19386
G1 X35.941 Y92.884 E0.22616
G1 X36.503 Y92.091 E0.25848
G1 X37.127 Y91.347 E0.29078
G1 X37.811 Y90.657 E0.32309
G1 X38.549 Y90.026 E0.35539
G1 X39.392 Y89.421 E0.3899
G1 X40.002 Y89.03 E0.414
G1 X138.835 Y28.867 E4.26235
G1 X139.412 Y28.527 E4.28463
G1 X140.269 Y28.068 E4.31696
G1 X141.16 Y27.682 E4.34926
G1 X142.08 Y27.37 E4.38157
G1 X143.023 Y27.136 E4.41388
G1 X143.982 Y26.979 E4.4462
G1 X144.95 Y26.902 E4.4785
G1 X145.921 Y26.904 E4.5108
G1 X146.889 Y26.987 E4.54311
G1 X147.847 Y27.149 E4.57543
G1 X148.788 Y27.389 E4.60773
G1 X149.706 Y27.706 E4.64003
G1 X150.596 Y28.097 E4.67236
G1 X151.45 Y28.56 E4.70467
G1 X152.262 Y29.092 E4.73696
G1 X153.029 Y29.688 E4.76926
G1 X153.744 Y30.346 E4.80158
G1 X154.402 Y31.06 E4.83388
G1 X154.999 Y31.826 E4.86618
G1 X155.305 Y32.275 E4.88425
G1 X155.657 Y32.827 E4.90603
G1 X198.958 Y103.958 E7.67574
G1 X199.323 Y104.578 E7.69967
G1 X199.781 Y105.434 E7.73196
G1 X200.167 Y106.326 E7.76428
G1 X200.478 Y107.246 E7.79658
G1 X200.712 Y108.189 E7.8289
G1 X200.869 Y109.147 E7.86119
G1 X200.945 Y110.116 E7.89352
G1 X200.942 Y111.087 E7.92581
G1 X200.859 Y112.055 E7.95813
G1 X200.697 Y113.013 E7.99044
G1 X200.457 Y113.954 E8.02274
G1 X200.14 Y114.872 E8.05504
G1 X199.748 Y115.761 E8.08736
G1 X199.285 Y116.615 E8.11967
G1 X198.753 Y117.427 E8.15196
G1 X198.046 Y118.321 E8.18986
G1 X197.577 Y118.852 E8.21343
G1 X162.019 Y157.426 E9.95834
G1 X161.545 Y157.927 E9.98128
G1 X160.849 Y158.604 E10.01357
G1 X160.099 Y159.222 E10.0459
G1 X159.223 Y159.826 E10.08129
G1 X158.47 Y160.295 E10.11079
G1 X136.722 Y173.463 E10.95639
G1 X134.526 Y174.834 E11.0425
G1 X132.448 Y176.217 E11.12552
G1 X130.438 Y177.638 E11.20739
G1 X128.405 Y179.162 E11.2919
G1 X126.467 Y180.703 E11.37425
G1 X124.567 Y182.303 E11.45687
G1 X122.679 Y183.987 E11.54101
G1 X120.902 Y185.664 E11.62228
G1 X119.104 Y187.461 E11.70683
G1 X117.408 Y189.253 E11.78889
G1 X115.753 Y191.105 E11.8715
G1 X114.12 Y193.038 E11.95566
G1 X112.583 Y194.966 E12.03767
G1 X111.084 Y196.963 E12.12072
G1 X109.644 Y198.994 E12.20353
G1 X108.211 Y201.147 E12.28955
G1 X107.236 Y202.669 E12.34967
G1 X106.679 Y203.465 E12.38198
G1 X106.059 Y204.212 E12.41427
G1 X105.379 Y204.906 E12.44659
G1 X104.644 Y205.541 E12.47889
G1 X103.86 Y206.114 E12.51119
G1 X103.031 Y206.621 E12.54351
G1 X102.163 Y207.057 E12.57582
G1 X101.262 Y207.421 E12.60814
G1 X100.335 Y207.71 E12.64044
G1 X99.387 Y207.921 E12.67274
G1 X98.424 Y208.053 E12.70507
G1 X97.454 Y208.106 E12.73738
G1 X96.483 Y208.079 E12.76969
G1 X95.518 Y207.972 E12.80198
G1 X94.564 Y207.786 E12.83431
G1 X93.629 Y207.522 E12.86662
G1 X92.851 Y207.237 E12.89418
G1 X92.212 Y206.972 E12.91719
G1 X56.508 Y191.322 E14.21378
G1 X55.731 Y190.97 E14.24215
G1 X54.864 Y190.533 E14.27444
G1 X54.035 Y190.025 E14.30678
G1 X53.252 Y189.451 E14.33907
G1 X52.518 Y188.814 E14.37139
G1 X51.839 Y188.12 E14.40369
G1 X51.22 Y187.371 E14.436
G1 X50.664 Y186.575 E14.4683
G1 X50.175 Y185.735 E14.50063
G1 X49.758 Y184.858 E14.53292
G1 X49.414 Y183.95 E14.56522
G1 X49.058 Y182.629 E14.61072
G1 X48.974 Y182.225 E14.62445
G1 X48.816 Y181.267 E14.65674
G1 X48.754 Y180.623 E14.67826
G1 X48.55 Y177.624 E14.77824
G1 X48.311 Y175.177 E14.86001
G1 X47.993 Y172.662 E14.94433
G1 X47.613 Y170.214 E15.02672
G1 X47.161 Y167.763 E15.10962
G1 X46.648 Y165.359 E15.19138
G1 X46.048 Y162.895 E15.27572
G1 X45.396 Y160.513 E15.35786
G1 X44.623 Y157.972 E15.4462
G1 X44.334 Y156.811 E15.486
G1 X44.179 Y156.018 E15.51287
G1 X34.316 Y101.908 E17.34223
G1 X34.206 Y101.252 E17.36435
G1 X34.085 Y100.289 E17.39663
G1 X34.044 Y99.318 E17.42896
G0 F6000 X34.444 Y99.285
G1 F1200 X34.485 Y98.331 E17.46072
G1 X34.606 Y97.384 E17.49247
G1 X34.806 Y96.45 E17.52424
G1 X35.083 Y95.537 E17.55597
G1 X35.436 Y94.649 E17.58776
G1 X35.862 Y93.795 E17.6195
G1 X36.358 Y92.979 E17.65126
G1 X36.92 Y92.207 E17.68302
G1 X37.545 Y91.485 E17.71478
G1 X38.228 Y90.818 E17.74653
G1 X38.965 Y90.211 E17.77829
G1 X39.611 Y89.756 E17.80457
G1 X40.21 Y89.371 E17.82825
G1 X139.039 Y29.211 E21.67644
G1 X139.616 Y28.871 E21.69871
G1 X140.458 Y28.421 E21.73047
G1 X141.335 Y28.044 E21.76222
G1 X142.24 Y27.741 E21.79396
G1 X143.168 Y27.514 E21.82573
G1 X144.111 Y27.366 E21.85748
G1 X145.063 Y27.298 E21.88923
G1 X146.018 Y27.31 E21.92099
G1 X146.968 Y27.401 E21.95273
G1 X147.908 Y27.572 E21.98451
G1 X148.829 Y27.82 E22.01624
G1 X149.727 Y28.145 E22.048
G1 X150.595 Y28.544 E22.07977
G1 X151.426 Y29.014 E22.11153
G1 X152.215 Y29.552 E22.14329
G1 X152.956 Y30.154 E22.17504
G1 X153.644 Y30.816 E22.2068
G1 X154.274 Y31.533 E22.23854
G1 X154.969 Y32.493 E22.27796
G1 X155.316 Y33.035 E22.29937
G1 X198.613 Y104.161 E25.06887
G1 X198.978 Y104.781 E25.0928
G1 X199.428 Y105.623 E25.12455
G1 X199.805 Y106.5 E25.1563
G1 X200.108 Y107.405 E25.18804
G1 X200.334 Y108.333 E25.21981
G1 X200.481 Y109.276 E25.25156
G1 X200.549 Y110.229 E25.28333
G1 X200.537 Y111.183 E25.31507
G1 X200.445 Y112.134 E25.34684
G1 X200.274 Y113.073 E25.37859
G1 X200.025 Y113.995 E25.41035
G1 X199.7 Y114.893 E25.44212
G1 X199.301 Y115.76 E25.47386
G1 X198.831 Y116.591 E25.50561
G1 X198.292 Y117.379 E25.53737
G1 X197.744 Y118.058 E25.56639
G1 X197.283 Y118.581 E25.58958
G1 X161.829 Y157.043 E27.32941
G1 X161.254 Y157.652 E27.35726
G1 X160.569 Y158.317 E27.38902
G1 X159.831 Y158.923 E27.42078
G1 X159.011 Y159.487 E27.45388
G1 X158.396 Y159.871 E27.47799
G1 X136.54 Y173.105 E28.3278
G1 X134.298 Y174.506 E28.41574
G1 X132.241 Y175.874 E28.4979
G1 X130.166 Y177.341 E28.58242
G1 X128.183 Y178.827 E28.66484
G1 X126.206 Y180.399 E28.74885
G1 X124.309 Y181.997 E28.83135
G1 X122.419 Y183.683 E28.91558
G1 X120.61 Y185.39 E28.99831
G1 X118.832 Y187.167 E29.08192
G1 X117.118 Y188.977 E29.16483
G1 X115.432 Y190.864 E29.24899
G1 X113.817 Y192.776 E29.33224
G1 X112.266 Y194.722 E29.415
G1 X110.753 Y196.737 E29.49881
G1 X109.317 Y198.764 E29.58143
G1 X107.873 Y200.931 E29.66804
G1 X106.899 Y202.453 E29.72814
G1 X106.351 Y203.235 E29.7599
G1 X105.74 Y203.968 E29.79164
G1 X105.069 Y204.648 E29.82342
G1 X104.344 Y205.269 E29.85517
G1 X103.569 Y205.827 E29.88693
G1 X102.751 Y206.318 E29.91866
G1 X101.894 Y206.74 E29.95043
G1 X101.005 Y207.088 E29.98219
G1 X100.09 Y207.36 E30.01394
G1 X99.155 Y207.555 E30.0457
G1 X98.207 Y207.671 E30.07747
G1 X97.253 Y207.707 E30.10922
G1 X96.299 Y207.663 E30.14099
G1 X95.352 Y207.54 E30.17275
G1 X94.419 Y207.338 E30.2045
G1 X93.506 Y207.058 E30.23626
G1 X93.002 Y206.866 E30.2542
G1 X92.372 Y206.606 E30.27687
G1 X56.668 Y190.956 E31.57346
G1 X55.896 Y190.606 E31.60165
G1 X55.044 Y190.175 E31.63341
G1 X54.231 Y189.675 E31.66515
G1 X53.463 Y189.108 E31.6969
G1 X52.745 Y188.478 E31.72867
G1 X52.082 Y187.791 E31.76043
G1 X51.479 Y187.051 E31.79218
G1 X50.94 Y186.263 E31.82393
G1 X50.469 Y185.432 E31.8557
G1 X50.069 Y184.566 E31.88743
G1 X49.743 Y183.668 E31.9192
G1 X49.45 Y182.548 E31.95771
G1 X49.366 Y182.144 E31.97143
G1 X49.211 Y181.202 E32.00319
G1 X49.153 Y180.596 E32.02343
G1 X48.949 Y177.591 E32.12361
G1 X48.707 Y175.12 E32.20619
G1 X48.391 Y172.621 E32.28997
G1 X48.008 Y170.151 E32.3731
G1 X47.553 Y167.686 E32.45647
G1 X47.032 Y165.245 E32.53949
G1 X46.439 Y162.808 E32.62291
G1 X45.779 Y160.397 E32.70605
G1 X45.006 Y157.856 E32.79439
G1 X44.726 Y156.734 E32.83285
G1 X44.601 Y156.097 E32.85444
G1 X34.711 Y101.842 E34.68871
G1 X34.601 Y101.186 E34.71083
G1 X34.483 Y100.239 E34.74257
G1 X34.444 Y99.285 E34.77433
G0 F6000 X34.844 Y99.252
G1 F1200 X34.888 Y98.315 E34.80553
G1 X35.012 Y97.386 E34.8367
G1 X35.215 Y96.47 E34.86791
G1 X35.494 Y95.575 E34.89909
G1 X35.849 Y94.707 E34.93028
G1 X36.277 Y93.872 E34.96148
G1 X36.774 Y93.077 E34.99267
G1 X37.337 Y92.327 E35.02386
G1 X37.962 Y91.628 E35.05505
G1 X38.645 Y90.984 E35.08627
G1 X39.379 Y90.401 E35.11745
G1 X39.829 Y90.091 E35.13562
G1 X40.418 Y89.713 E35.1589
G1 X139.242 Y29.556 E39.00689
G1 X139.819 Y29.216 E39.02916
G1 X140.646 Y28.775 E39.06034
G1 X141.508 Y28.406 E39.09152
G1 X142.399 Y28.111 E39.12274
G1 X143.311 Y27.894 E39.15392
G1 X144.239 Y27.755 E39.18513
G1 X145.175 Y27.695 E39.21633
G1 X146.112 Y27.716 E39.2475
G1 X147.045 Y27.816 E39.27871
G1 X147.965 Y27.996 E39.30989
G1 X148.867 Y28.253 E39.34108
G1 X149.744 Y28.586 E39.37228
G1 X150.589 Y28.992 E39.40346
G1 X151.397 Y29.469 E39.43467
G1 X152.161 Y30.013 E39.46586
G1 X152.875 Y30.621 E39.49706
G1 X153.536 Y31.286 E39.52824
G1 X154.137 Y32.006 E39.55944
G1 X154.634 Y32.71 E39.5881
G1 X154.974 Y33.243 E39.60912
G1 X198.268 Y104.363 E42.3784
G1 X198.633 Y104.983 E42.40233
G1 X199.074 Y105.811 E42.43353
G1 X199.443 Y106.674 E42.46475
G1 X199.737 Y107.564 E42.49593
G1 X199.954 Y108.477 E42.52714
G1 X200.093 Y109.404 E42.55832
G1 X200.152 Y110.34 E42.58951
G1 X200.131 Y111.278 E42.62071
G1 X200.03 Y112.21 E42.65189
G1 X199.85 Y113.131 E42.68311
G1 X199.593 Y114.032 E42.71427
G1 X199.259 Y114.909 E42.74548
G1 X198.853 Y115.754 E42.77666
G1 X198.375 Y116.561 E42.80786
G1 X197.831 Y117.325 E42.83905
G1 X197.443 Y117.795 E42.85932
G1 X196.989 Y118.309 E42.88213
G1 X161.438 Y156.876 E44.62672
G1 X160.964 Y157.377 E44.64966
G1 X160.29 Y158.03 E44.68087
G1 X159.564 Y158.624 E44.71207
G1 X158.799 Y159.148 E44.74291
G1 X158.184 Y159.532 E44.76702
G1 X136.274 Y172.799 E45.61894
G1 X134.111 Y174.15 E45.70376
G1 X131.995 Y175.558 E45.7883
G1 X129.941 Y177.01 E45.87196
G1 X127.94 Y178.51 E45.95514
G1 X125.962 Y180.082 E46.03917
G1 X124.031 Y181.709 E46.12315
G1 X122.147 Y183.389 E46.20711
G1 X120.335 Y185.099 E46.28998
G1 X118.541 Y186.892 E46.37434
G1 X116.812 Y188.718 E46.45798
G1 X115.144 Y190.585 E46.54125
G1 X113.518 Y192.51 E46.62506
G1 X111.933 Y194.5 E46.70967
G1 X110.452 Y196.471 E46.79167
G1 X108.974 Y198.556 E46.87668
G1 X107.553 Y200.69 E46.96195
G1 X106.562 Y202.238 E47.02308
G1 X106.024 Y203.005 E47.05424
G1 X105.421 Y203.724 E47.08545
G1 X104.76 Y204.389 E47.11664
G1 X104.044 Y204.995 E47.14784
G1 X103.28 Y205.538 E47.17901
G1 X102.472 Y206.014 E47.21021
G1 X101.626 Y206.42 E47.24142
G1 X100.749 Y206.752 E47.2726
G1 X99.846 Y207.008 E47.30382
G1 X98.926 Y207.186 E47.33499
G1 X97.993 Y207.285 E47.3662
G1 X97.055 Y207.304 E47.3974
G1 X96.119 Y207.244 E47.42859
G1 X95.192 Y207.104 E47.45978
G1 X94.28 Y206.885 E47.49097
G1 X93.152 Y206.496 E47.53066
G1 X92.533 Y206.24 E47.55294
G1 X56.829 Y190.59 E48.84953
G1 X56.062 Y190.242 E48.87754
G1 X55.225 Y189.818 E48.90875
G1 X54.428 Y189.325 E48.93992
G1 X53.675 Y188.765 E48.97113
G1 X52.973 Y188.143 E49.00232
G1 X52.326 Y187.463 E49.03354
G1 X51.74 Y186.731 E49.06473
G1 X51.218 Y185.952 E49.09592
G1 X50.765 Y185.131 E49.12711
G1 X50.383 Y184.275 E49.15828
G1 X50.075 Y183.389 E49.18948
G1 X49.841 Y182.466 E49.22115
G1 X49.757 Y182.062 E49.23488
G1 X49.606 Y181.137 E49.26605
G1 X49.552 Y180.569 E49.28503
G1 X49.347 Y177.558 E49.3854
G1 X49.104 Y175.067 E49.46865
G1 X48.79 Y172.582 E49.55196
G1 X48.403 Y170.089 E49.63587
G1 X47.943 Y167.594 E49.72025
G1 X47.427 Y165.18 E49.80235
G1 X46.817 Y162.672 E49.8882
G1 X46.162 Y160.28 E49.97069
G1 X45.389 Y157.739 E50.05903
G1 X45.119 Y156.657 E50.09612
G1 X44.966 Y155.875 E50.12262
G1 X35.132 Y101.93 E51.94641
G1 X34.995 Y101.12 E51.97373
G1 X34.88 Y100.189 E52.00493
G1 X34.844 Y99.252 E52.03612
G0 F6000 X35.244 Y99.22
G1 F1200 X35.291 Y98.301 E52.06673
G1 X35.418 Y97.389 E52.09735
G1 X35.623 Y96.491 E52.12799
G1 X35.906 Y95.615 E52.15861
G1 X36.263 Y94.767 E52.18921
G1 X36.692 Y93.952 E52.21984
G1 X37.191 Y93.178 E52.25047
G1 X37.755 Y92.451 E52.28107
G1 X38.38 Y91.775 E52.3117
G1 X39.061 Y91.155 E52.34233
G1 X40.048 Y90.426 E52.38314
G1 X40.626 Y90.055 E52.40598
G1 X139.445 Y29.901 E56.25378
G1 X140.022 Y29.561 E56.27605
G1 X140.834 Y29.128 E56.30666
G1 X141.682 Y28.768 E56.3373
G1 X142.557 Y28.482 E56.36792
G1 X143.454 Y28.274 E56.39855
G1 X144.365 Y28.144 E56.42915
G1 X145.284 Y28.094 E56.45976
G1 X146.205 Y28.123 E56.49041
G1 X147.119 Y28.233 E56.52103
G1 X148.02 Y28.421 E56.55164
G1 X148.901 Y28.687 E56.58225
G1 X149.756 Y29.028 E56.61287
G1 X150.579 Y29.442 E56.64351
G1 X151.362 Y29.926 E56.67413
G1 X152.1 Y30.476 E56.70474
G1 X152.788 Y31.089 E56.73539
G1 X153.42 Y31.758 E56.766
G1 X153.991 Y32.48 E56.79661
G1 X154.298 Y32.928 E56.81468
G1 X154.632 Y33.451 E56.83532
G1 X197.924 Y104.566 E59.60442
G1 X198.289 Y105.186 E59.62835
G1 X198.721 Y105.999 E59.65897
G1 X199.081 Y106.847 E59.68961
G1 X199.366 Y107.722 E59.72022
G1 X199.574 Y108.619 E59.75084
G1 X199.703 Y109.53 E59.78144
G1 X199.753 Y110.45 E59.81209
G1 X199.723 Y111.37 E59.8427
G1 X199.614 Y112.284 E59.87332
G1 X199.425 Y113.185 E59.90394
G1 X199.159 Y114.066 E59.93455
G1 X198.817 Y114.921 E59.96518
G1 X198.403 Y115.743 E59.99579
G1 X197.918 Y116.526 E60.02642
G1 X197.142 Y117.532 E60.06868
G1 X196.695 Y118.038 E60.09113
G1 X161.147 Y156.601 E61.83555
G1 X160.673 Y157.102 E61.85849
G1 X160.012 Y157.743 E61.88912
G1 X159.297 Y158.324 E61.91976
G1 X158.587 Y158.808 E61.94834
G1 X157.972 Y159.192 E61.97245
G1 X136.113 Y172.428 E62.82238
G1 X133.883 Y173.821 E62.90984
G1 X131.788 Y175.215 E62.99353
G1 X129.693 Y176.696 E63.07886
G1 X127.697 Y178.192 E63.16183
G1 X125.701 Y179.779 E63.24664
G1 X123.79 Y181.388 E63.32973
G1 X121.867 Y183.104 E63.41545
G1 X120.043 Y184.824 E63.49884
G1 X118.269 Y186.598 E63.58228
G1 X116.523 Y188.442 E63.66674
G1 X114.842 Y190.324 E63.75067
G1 X113.198 Y192.27 E63.8354
G1 X111.633 Y194.234 E63.91893
G1 X110.109 Y196.262 E64.0033
G1 X108.643 Y198.332 E64.08767
G1 X107.216 Y200.474 E64.17327
G1 X106.225 Y202.022 E64.23441
G1 X105.696 Y202.775 E64.26502
G1 X105.103 Y203.479 E64.29563
G1 X104.451 Y204.13 E64.32628
G1 X103.745 Y204.721 E64.3569
G1 X102.991 Y205.248 E64.38749
G1 X102.194 Y205.709 E64.41812
G1 X101.359 Y206.098 E64.44876
G1 X100.495 Y206.414 E64.47935
G1 X99.606 Y206.653 E64.50997
G1 X98.699 Y206.814 E64.54061
G1 X97.782 Y206.896 E64.57123
G1 X96.861 Y206.898 E64.60187
G1 X95.944 Y206.82 E64.63248
G1 X95.037 Y206.663 E64.66309
G1 X94.147 Y206.428 E64.69371
G1 X93.303 Y206.125 E64.72353
G1 X92.694 Y205.873 E64.74545
G1 X56.861 Y190.166 E66.04673
G1 X56.227 Y189.878 E66.06989
G1 X55.406 Y189.461 E66.10052
G1 X54.624 Y188.975 E66.13114
G1 X53.888 Y188.422 E66.16176
G1 X53.202 Y187.808 E66.19239
G1 X52.572 Y187.136 E66.22302
G1 X52.003 Y186.413 E66.25362
G1 X51.499 Y185.643 E66.28423
G1 X51.063 Y184.831 E66.31489
G1 X50.7 Y183.986 E66.34547
G1 X50.411 Y183.111 E66.37612
G1 X50.233 Y182.385 E66.40099
G1 X50.149 Y181.981 E66.41471
G1 X50.001 Y181.072 E66.44534
G1 X49.951 Y180.542 E66.46305
G1 X49.746 Y177.525 E66.56362
G1 X49.501 Y175.015 E66.6475
G1 X49.18 Y172.482 E66.73243
G1 X48.798 Y170.026 E66.8151
G1 X48.342 Y167.551 E66.8988
G1 X47.812 Y165.066 E66.98331
G1 X47.216 Y162.619 E67.06708
G1 X46.534 Y160.13 E67.15291
G1 X45.772 Y157.623 E67.24006
G1 X45.511 Y156.58 E67.27582
G1 X45.386 Y155.943 E67.29741
G1 X35.5 Y101.71 E69.13093
G1 X35.39 Y101.054 E69.15306
G1 X35.277 Y100.14 E69.18369
G1 X35.244 Y99.22 E69.21431
G0 F6000 X35.645 Y99.189
G1 F1200 X35.695 Y98.287 E69.24435
G1 X35.824 Y97.393 E69.2744
G1 X36.032 Y96.514 E69.30444
G1 X36.317 Y95.657 E69.33448
