;FLAVOR:Marlin
;TIME:13614
;Filament used: 8.20062m
;Layer height: 0.2
;MINX:21.854
;MINY:35.813
;MINZ:0.2
;MAXX:213.131
;MAXY:199.187
;MAXZ:4
;Generated with Cura_SteamEngine main
M140 S50
M105
M190 S50
M104 S200
M105
M109 S200
M82 ;absolute extrusion mode
; Ender 3 Custom Start G-code
G92 E0 ; Reset Extruder
G28 ; Home all axes
G1 Z2.0 F3000 ; Move Z Axis up little to prevent scratching of Heat Bed
G1 X0.1 Y20 Z0.3 F5000.0 ; Move to start position
G1 X0.1 Y200.0 Z0.3 F1500.0 E15 ; Draw the first line
G1 X0.4 Y200.0 Z0.3 F5000.0 ; Move to side a little
G1 X0.4 Y20 Z0.3 F1500.0 E30 ; Draw the second line
G92 E0 ; Reset Extruder
G1 Z2.0 F3000 ; Move Z Axis up little to prevent scratching of Heat Bed
G1 X5 Y20 Z0.3 F5000.0 ; Move over to prevent blob squish
G92 E0
G92 E0
G1 F2700 E-5
;LAYER_COUNT:20
;LAYER:0
M107
G0 F6000 X31.095 Y86.297 Z0.2
G0 X22.057 Y97.021
;TYPE:SKIRT
G1 F2700 E0
G1 F1200 X22.271 Y95.993 E0.03492
G1 X22.563 Y94.983 E0.06989
G1 X22.931 Y93.999 E0.10483
G1 X23.372 Y93.046 E0.13976
G1 X23.885 Y92.129 E0.17471
G1 X24.466 Y91.254 E0.20964
G1 X25.112 Y90.426 E0.24457
G1 X25.819 Y89.649 E0.27951
G1 X26.583 Y88.928 E0.31445
G1 X27.4 Y88.267 E0.34941
G1 X28.265 Y87.67 E0.38436
G1 X29.172 Y87.141 E0.41929
G1 X30.117 Y86.683 E0.45421
G1 X31.095 Y86.297 E0.48918
G1 X32.098 Y85.988 E0.52409
G1 X33.52 Y85.687 E0.57243
G1 X36.195 Y85.266 E0.6625
G1 X38.604 Y84.816 E0.74401
G1 X40.992 Y84.299 E0.82528
G1 X43.339 Y83.722 E0.90566
G1 X45.693 Y83.071 E0.98689
G1 X48.039 Y82.35 E1.06852
G1 X50.34 Y81.571 E1.14932
G1 X52.628 Y80.724 E1.23047
G1 X54.881 Y79.817 E1.31125
G1 X57.122 Y78.839 E1.39257
G1 X59.331 Y77.801 E1.47375
G1 X61.511 Y76.7 E1.55498
G1 X63.649 Y75.543 E1.63584
G1 X65.745 Y74.33 E1.71638
G1 X67.852 Y73.031 E1.79871
G1 X69.908 Y71.683 E1.88048
G1 X71.187 Y70.8 E1.93217
G1 X92.231 Y55.992 E2.78802
G1 X92.803 Y55.601 E2.81106
G1 X93.693 Y55.042 E2.84602
G1 X94.622 Y54.552 E2.88095
G1 X95.89 Y54.019 E2.9267
G1 X96.522 Y53.79 E2.94906
G1 X146.115 Y36.714 E4.69357
G1 X146.767 Y36.5 E4.71639
G1 X147.777 Y36.211 E4.75133
G1 X148.806 Y35.999 E4.78628
G1 X149.848 Y35.866 E4.82121
G1 X150.898 Y35.813 E4.85618
G1 X151.948 Y35.84 E4.89112
G1 X152.993 Y35.946 E4.92605
G1 X154.027 Y36.132 E4.96099
G1 X155.044 Y36.396 E4.99594
G1 X156.037 Y36.737 E5.03086
G1 X157.002 Y37.152 E5.0658
G1 X157.933 Y37.639 E5.10075
G1 X158.824 Y38.196 E5.13569
G1 X159.67 Y38.819 E5.17064
G1 X160.466 Y39.504 E5.20557
G1 X161.208 Y40.248 E5.24052
G1 X162.111 Y41.332 E5.28744
G1 X162.513 Y41.88 E5.31005
G1 X210.348 Y110.193 E8.0838
G1 X210.745 Y110.777 E8.10729
G1 X211.302 Y111.667 E8.14221
G1 X211.79 Y112.598 E8.17717
G1 X212.205 Y113.563 E8.21211
G1 X212.546 Y114.556 E8.24703
G1 X212.81 Y115.573 E8.28197
G1 X212.997 Y116.607 E8.31692
G1 X213.104 Y117.652 E8.35186
G1 X213.131 Y118.702 E8.3868
G1 X213.078 Y119.751 E8.42173
G1 X212.946 Y120.793 E8.45666
G1 X212.735 Y121.823 E8.49163
G1 X212.446 Y122.833 E8.52657
G1 X212.081 Y123.818 E8.56151
G1 X211.642 Y124.772 E8.59644
G1 X211.132 Y125.691 E8.6314
G1 X210.553 Y126.567 E8.66632
G1 X209.91 Y127.398 E8.70127
G1 X209.205 Y128.177 E8.73622
G1 X208.443 Y128.9 E8.77115
G1 X207.584 Y129.596 E8.80792
G1 X206.991 Y130.03 E8.83237
G1 X112.23 Y196.382 E12.67995
G1 X111.63 Y196.791 E12.7041
G1 X110.74 Y197.349 E12.73904
G1 X109.81 Y197.838 E12.77399
G1 X108.846 Y198.255 E12.80892
G1 X107.853 Y198.597 E12.84385
G1 X106.836 Y198.863 E12.87882
G1 X105.803 Y199.05 E12.91373
G1 X104.758 Y199.159 E12.94868
G1 X103.708 Y199.187 E12.98361
G1 X102.658 Y199.136 E13.01858
G1 X101.616 Y199.005 E13.05351
G1 X100.587 Y198.795 E13.08844
G1 X99.576 Y198.507 E13.1234
G1 X98.591 Y198.144 E13.15832
G1 X97.636 Y197.706 E13.19326
G1 X96.516 Y197.074 E13.23604
G1 X95.907 Y196.682 E13.26012
G1 X50.036 Y165.743 E15.1004
G1 X49.414 Y165.31 E15.1256
G1 X48.335 Y164.477 E15.17094
G1 X46.174 Y162.631 E15.26547
G1 X44.277 Y161.105 E15.34645
G1 X42.325 Y159.622 E15.42798
G1 X40.372 Y158.224 E15.50786
G1 X38.331 Y156.849 E15.58972
G1 X36.272 Y155.545 E15.67078
G1 X34.176 Y154.299 E15.75188
G1 X32.044 Y153.112 E15.83304
G1 X29.616 Y151.85 E15.92405
G1 X28.277 Y151.055 E15.97584
G1 X27.959 Y150.841 E15.98859
G1 X27.111 Y150.222 E16.02351
G1 X26.312 Y149.54 E16.05845
G1 X25.567 Y148.799 E16.0934
G1 X24.881 Y148.004 E16.12833
G1 X24.257 Y147.158 E16.16329
G1 X23.699 Y146.268 E16.19823
G1 X23.211 Y145.338 E16.23316
G1 X22.794 Y144.373 E16.26812
G1 X22.453 Y143.38 E16.30305
G1 X22.188 Y142.363 E16.338
G1 X22.001 Y141.33 E16.37292
G1 X21.87 Y139.814 E16.42353
G1 X21.855 Y139.098 E16.44735
G1 X21.854 Y99.985 E17.74825
G1 X21.866 Y99.112 E17.77729
G1 X21.921 Y98.063 E17.81223
G1 X22.057 Y97.021 E17.84718
G0 F6000 X22.655 Y99.79
G1 F1200 X22.665 Y99.124 E17.86933
G1 X22.721 Y98.106 E17.90324
G1 X22.856 Y97.095 E17.93717
G1 X23.069 Y96.098 E17.97107
G1 X23.36 Y95.121 E18.00498
G1 X23.727 Y94.17 E18.03888
G1 X24.168 Y93.25 E18.07282
G1 X24.679 Y92.368 E18.10672
G1 X25.257 Y91.528 E18.14063
G1 X25.9 Y90.736 E18.17456
G1 X26.602 Y89.998 E18.20844
G1 X27.361 Y89.316 E18.24238
G1 X28.17 Y88.696 E18.27628
G1 X29.026 Y88.142 E18.31019
G1 X29.922 Y87.656 E18.3441
G1 X30.854 Y87.242 E18.37802
G1 X31.815 Y86.902 E18.41192
G1 X32.8 Y86.638 E18.44584
G1 X33.644 Y86.477 E18.47442
G1 X36.329 Y86.055 E18.56482
G1 X38.777 Y85.597 E18.64765
G1 X41.175 Y85.078 E18.72925
G1 X43.533 Y84.498 E18.81002
G1 X45.93 Y83.835 E18.89274
G1 X48.277 Y83.114 E18.9744
G1 X50.601 Y82.327 E19.05601
G1 X52.92 Y81.468 E19.13826
G1 X55.185 Y80.557 E19.21946
G1 X57.454 Y79.567 E19.3018
G1 X59.674 Y78.524 E19.38338
G1 X61.894 Y77.402 E19.46611
G1 X64.044 Y76.239 E19.54741
G1 X66.154 Y75.018 E19.62849
G1 X68.284 Y73.705 E19.71171
G1 X70.328 Y72.364 E19.79302
G1 X71.728 Y71.398 E19.8496
G1 X92.537 Y56.754 E20.69591
G1 X93.255 Y56.262 E20.72486
G1 X94.118 Y55.72 E20.75875
G1 X95.022 Y55.247 E20.79269
G1 X96.162 Y54.772 E20.83376
G1 X96.991 Y54.473 E20.86307
G1 X146.365 Y37.474 E22.59986
G1 X147.017 Y37.26 E22.62269
G1 X147.997 Y36.981 E22.65658
G1 X148.997 Y36.779 E22.69051
G1 X150.009 Y36.655 E22.72442
G1 X151.028 Y36.612 E22.75834
G1 X152.047 Y36.649 E22.79226
G1 X153.06 Y36.765 E22.82617
G1 X154.06 Y36.96 E22.86006
G1 X155.043 Y37.234 E22.894
G1 X156 Y37.583 E22.92788
G1 X156.928 Y38.006 E22.9618
G1 X157.82 Y38.501 E22.99573
G1 X158.67 Y39.064 E23.02964
G1 X159.473 Y39.692 E23.06355
G1 X160.225 Y40.381 E23.09747
G1 X160.92 Y41.127 E23.13138
G1 X161.471 Y41.812 E23.16062
G1 X161.858 Y42.339 E23.18237
G1 X209.686 Y110.642 E25.95571
G1 X210.083 Y111.226 E25.9792
G1 X210.623 Y112.092 E26.01314
G1 X211.093 Y112.996 E26.04703
G1 X211.491 Y113.935 E26.08095
G1 X211.814 Y114.902 E26.11486
G1 X212.06 Y115.891 E26.14876
G1 X212.228 Y116.897 E26.18268
G1 X212.317 Y117.913 E26.2166
G1 X212.326 Y118.932 E26.2505
G1 X212.255 Y119.95 E26.28444
G1 X212.104 Y120.958 E26.31834
G1 X211.875 Y121.951 E26.35223
G1 X211.569 Y122.924 E26.38616
G1 X211.187 Y123.869 E26.42006
G1 X210.733 Y124.782 E26.45397
G1 X210.208 Y125.656 E26.48788
G1 X209.616 Y126.487 E26.52182
G1 X208.961 Y127.268 E26.55572
G1 X208.247 Y127.996 E26.58964
G1 X207.106 Y128.955 E26.63921
G1 X206.532 Y129.375 E26.66287
G1 X111.779 Y195.721 E30.51012
G1 X111.179 Y196.13 E30.53427
G1 X110.315 Y196.671 E30.56818
G1 X109.411 Y197.142 E30.60208
G1 X108.473 Y197.541 E30.63598
G1 X107.506 Y197.865 E30.6699
G1 X106.517 Y198.113 E30.70382
G1 X105.511 Y198.282 E30.73775
G1 X104.496 Y198.372 E30.77164
G1 X103.476 Y198.382 E30.80556
G1 X102.459 Y198.313 E30.83947
G1 X101.45 Y198.163 E30.8734
G1 X100.457 Y197.935 E30.90728
G1 X99.484 Y197.63 E30.9412
G1 X98.538 Y197.25 E30.9751
G1 X97.624 Y196.797 E31.00903
G1 X96.942 Y196.396 E31.03535
G1 X96.354 Y196.019 E31.05858
G1 X50.651 Y165.195 E32.89208
G1 X49.871 Y164.653 E32.92367
G1 X48.855 Y163.869 E32.96635
G1 X46.68 Y162.011 E33.0615
G1 X44.771 Y160.475 E33.14299
G1 X42.828 Y159 E33.22413
G1 X40.792 Y157.542 E33.30742
G1 X38.779 Y156.186 E33.38814
G1 X36.681 Y154.857 E33.47075
G1 X34.588 Y153.613 E33.55173
G1 X32.417 Y152.404 E33.63438
G1 X29.985 Y151.14 E33.72554
G1 X28.724 Y150.391 E33.77432
G1 X28.406 Y150.177 E33.78707
G1 X27.583 Y149.575 E33.82098
G1 X26.81 Y148.911 E33.85488
G1 X26.091 Y148.187 E33.88881
G1 X25.431 Y147.41 E33.92272
G1 X24.834 Y146.584 E33.95662
G1 X24.304 Y145.713 E33.99053
G1 X23.844 Y144.803 E34.02444
G1 X23.456 Y143.86 E34.05836
G1 X23.143 Y142.889 E34.09229
G1 X22.908 Y141.897 E34.1262
G1 X22.751 Y140.89 E34.1601
G1 X22.67 Y139.79 E34.19678
G1 X22.655 Y139.098 E34.2198
G1 X22.655 Y99.79 E35.52719
G0 F6000 X23.055 Y99.796
G1 F1200 X23.065 Y99.13 E35.54935
G1 X23.12 Y98.128 E35.58272
G1 X23.255 Y97.133 E35.61612
G1 X23.469 Y96.152 E35.64952
G1 X23.759 Y95.191 E35.6829
G1 X24.126 Y94.257 E35.71628
G1 X24.565 Y93.354 E35.74967
G1 X25.075 Y92.49 E35.78304
G1 X25.653 Y91.668 E35.81647
G1 X26.293 Y90.896 E35.84982
G1 X26.994 Y90.177 E35.88322
G1 X27.749 Y89.515 E35.91661
G1 X28.554 Y88.916 E35.94999
G1 X29.405 Y88.384 E35.98337
G1 X30.295 Y87.92 E36.01675
G1 X31.22 Y87.529 E36.05015
G1 X32.172 Y87.212 E36.08353
G1 X33.147 Y86.973 E36.11691
G1 X33.707 Y86.872 E36.13584
G1 X36.422 Y86.445 E36.22725
G1 X38.836 Y85.994 E36.30893
G1 X41.242 Y85.473 E36.39081
G1 X43.638 Y84.883 E36.47288
G1 X46.05 Y84.217 E36.55611
G1 X48.375 Y83.502 E36.63701
G1 X50.763 Y82.694 E36.72086
G1 X53.06 Y81.843 E36.80233
G1 X55.357 Y80.919 E36.88468
G1 X57.605 Y79.938 E36.96626
G1 X59.859 Y78.878 E37.0491
G1 X62.086 Y77.754 E37.13207
G1 X64.23 Y76.594 E37.21315
G1 X66.37 Y75.356 E37.29538
G1 X68.465 Y74.063 E37.37726
G1 X70.612 Y72.656 E37.46264
G1 X71.893 Y71.771 E37.51442
G1 X92.909 Y56.983 E38.36912
G1 X93.481 Y56.592 E38.39217
G1 X94.331 Y56.059 E38.42554
G1 X95.221 Y55.595 E38.45892
G1 X96.299 Y55.148 E38.49774
G1 X97.121 Y54.851 E38.52681
G1 X146.317 Y37.912 E40.25735
G1 X147.142 Y37.64 E40.28624
G1 X148.107 Y37.366 E40.31961
G1 X149.091 Y37.168 E40.35299
G1 X150.088 Y37.05 E40.38638
G1 X151.091 Y37.012 E40.41977
G1 X152.094 Y37.054 E40.45315
G1 X153.091 Y37.175 E40.48656
G1 X154.074 Y37.375 E40.51992
G1 X155.039 Y37.653 E40.55332
G1 X155.978 Y38.007 E40.5867
G1 X156.886 Y38.434 E40.62007
G1 X157.758 Y38.933 E40.65349
G1 X158.587 Y39.499 E40.68688
G1 X159.368 Y40.129 E40.72025
G1 X160.096 Y40.82 E40.75363
G1 X160.768 Y41.566 E40.78703
G1 X161.151 Y42.052 E40.80761
G1 X161.53 Y42.569 E40.82893
G1 X209.355 Y110.867 E43.60209
G1 X209.752 Y111.451 E43.62557
G1 X210.283 Y112.303 E43.65896
G1 X210.744 Y113.195 E43.69236
G1 X211.133 Y114.12 E43.72573
G1 X211.447 Y115.074 E43.75914
G1 X211.684 Y116.049 E43.79251
G1 X211.843 Y117.04 E43.82589
G1 X211.922 Y118.041 E43.85929
G1 X211.922 Y119.045 E43.89268
G1 X211.841 Y120.045 E43.92605
G1 X211.681 Y121.036 E43.95944
G1 X211.443 Y122.011 E43.99282
G1 X211.128 Y122.964 E44.02621
G1 X210.738 Y123.889 E44.05959
G1 X210.275 Y124.78 E44.09299
G1 X209.744 Y125.632 E44.12638
G1 X209.146 Y126.438 E44.15976
G1 X208.485 Y127.194 E44.19316
G1 X207.767 Y127.895 E44.22654
G1 X206.867 Y128.634 E44.26527
G1 X206.303 Y129.047 E44.28852
G1 X111.554 Y195.39 E48.13561
G1 X110.954 Y195.799 E48.15976
G1 X110.103 Y196.331 E48.19314
G1 X109.212 Y196.794 E48.22654
G1 X108.287 Y197.184 E48.25992
G1 X107.334 Y197.499 E48.29331
G1 X106.359 Y197.737 E48.32669
G1 X105.368 Y197.897 E48.36008
G1 X104.367 Y197.978 E48.39348
G1 X103.363 Y197.978 E48.42687
G1 X102.363 Y197.899 E48.46024
G1 X101.372 Y197.74 E48.49362
G1 X100.396 Y197.503 E48.52702
G1 X99.443 Y197.189 E48.5604
G1 X98.517 Y196.801 E48.59379
G1 X97.626 Y196.339 E48.62717
G1 X97.154 Y196.057 E48.64546
G1 X96.578 Y195.687 E48.66823
G1 X50.721 Y164.758 E50.50793
G1 X50.099 Y164.325 E50.53314
G1 X49.115 Y163.565 E50.57449
G1 X46.945 Y161.711 E50.66942
G1 X45.018 Y160.161 E50.75167
G1 X43.034 Y158.655 E50.83452
G1 X41.042 Y157.229 E50.916
G1 X38.994 Y155.849 E50.99814
G1 X36.894 Y154.519 E51.08081
G1 X34.781 Y153.262 E51.16259
G1 X32.616 Y152.057 E51.245
G1 X30.169 Y150.785 E51.33672
G1 X28.947 Y150.059 E51.384
G1 X28.629 Y149.845 E51.39675
G1 X27.82 Y149.252 E51.43011
G1 X27.06 Y148.597 E51.46348
G1 X26.354 Y147.882 E51.4969
G1 X25.708 Y147.114 E51.53028
G1 X25.125 Y146.297 E51.56366
G1 X24.608 Y145.436 E51.59706
G1 X24.162 Y144.537 E51.63044
G1 X23.789 Y143.605 E51.66383
G1 X23.492 Y142.647 E51.69719
G1 X23.271 Y141.667 E51.7306
G1 X23.129 Y140.674 E51.76397
G1 X23.07 Y139.778 E51.79383
G1 X23.055 Y139.098 E51.81645
G1 X23.055 Y99.796 E53.12364
G0 F6000 X23.455 Y99.802
G1 F1200 X23.465 Y99.136 E53.1458
G1 X23.52 Y98.15 E53.17864
G1 X23.655 Y97.171 E53.21151
G1 X23.868 Y96.207 E53.24435
G1 X24.158 Y95.263 E53.2772
G1 X24.524 Y94.345 E53.31007
G1 X24.963 Y93.46 E53.34292
G1 X25.472 Y92.614 E53.37576
G1 X26.048 Y91.811 E53.40863
G1 X26.687 Y91.058 E53.44148
G1 X27.384 Y90.359 E53.47431
G1 X28.136 Y89.718 E53.50717
G1 X28.938 Y89.141 E53.54003
G1 X29.783 Y88.63 E53.57288
G1 X30.667 Y88.189 E53.60574
G1 X31.584 Y87.822 E53.63859
G1 X32.527 Y87.529 E53.67143
G1 X33.769 Y87.267 E53.71365
G1 X36.492 Y86.839 E53.80533
G1 X38.915 Y86.386 E53.88731
G1 X41.358 Y85.857 E53.97045
G1 X43.726 Y85.274 E54.05156
G1 X46.136 Y84.608 E54.13473
G1 X48.526 Y83.874 E54.21788
G1 X50.882 Y83.076 E54.30062
G1 X53.2 Y82.218 E54.38282
G1 X55.5 Y81.292 E54.46529
G1 X57.8 Y80.289 E54.54875
G1 X60.046 Y79.233 E54.63129
G1 X62.25 Y78.12 E54.71342
G1 X64.414 Y76.949 E54.79525
G1 X66.574 Y75.699 E54.87826
G1 X68.715 Y74.378 E54.96193
G1 X70.798 Y73.013 E55.04476
G1 X72.129 Y72.095 E55.09854
G1 X93.134 Y57.313 E55.95282
G1 X93.706 Y56.922 E55.97587
G1 X94.544 Y56.398 E56.00874
G1 X95.421 Y55.944 E56.04159
G1 X96.435 Y55.524 E56.07809
G1 X97.251 Y55.23 E56.10694
G1 X146.614 Y38.234 E57.84335
G1 X147.266 Y38.02 E57.86618
G1 X148.217 Y37.751 E57.89905
G1 X149.185 Y37.559 E57.93187
G1 X150.167 Y37.446 E57.96475
G1 X151.154 Y37.412 E57.99759
G1 X152.14 Y37.459 E58.03043
G1 X153.12 Y37.585 E58.06329
G1 X154.086 Y37.79 E58.09613
G1 X155.033 Y38.073 E58.12901
G1 X155.953 Y38.431 E58.16184
G1 X156.842 Y38.863 E58.19472
G1 X157.692 Y39.365 E58.22755
G1 X158.499 Y39.934 E58.26039
G1 X159.258 Y40.567 E58.29326
G1 X159.963 Y41.259 E58.32612
G1 X160.831 Y42.292 E58.371
G1 X161.202 Y42.798 E58.39187
G1 X209.024 Y111.092 E61.16485
G1 X209.421 Y111.676 E61.18834
G1 X209.943 Y112.515 E61.22121
G1 X210.395 Y113.393 E61.25405
G1 X210.775 Y114.305 E61.28691
G1 X211.08 Y115.244 E61.31975
G1 X211.308 Y116.206 E61.35263
G1 X211.457 Y117.182 E61.38547
G1 X211.526 Y118.167 E61.41831
G1 X211.516 Y119.155 E61.45117
G1 X211.426 Y120.138 E61.48401
G1 X211.257 Y121.112 E61.51689
G1 X211.009 Y122.068 E61.54973
G1 X210.685 Y123.001 E61.58258
G1 X210.287 Y123.905 E61.61544
G1 X209.817 Y124.773 E61.64827
G1 X209.278 Y125.601 E61.68113
G1 X208.673 Y126.382 E61.71399
G1 X208.008 Y127.112 E61.74683
G1 X207.286 Y127.786 E61.77968
G1 X206.628 Y128.313 E61.80772
G1 X206.074 Y128.72 E61.83058
G1 X111.329 Y195.06 E65.67751
G1 X110.729 Y195.469 E65.70166
G1 X109.891 Y195.992 E65.73451
G1 X109.013 Y196.445 E65.76737
G1 X108.102 Y196.826 E65.80021
G1 X107.163 Y197.132 E65.83306
G1 X106.202 Y197.361 E65.86592
G1 X105.226 Y197.511 E65.89876
G1 X104.24 Y197.582 E65.93164
G1 X103.253 Y197.573 E65.96447
G1 X102.269 Y197.484 E65.99733
G1 X101.296 Y197.316 E66.03017
G1 X100.339 Y197.07 E66.06304
G1 X99.406 Y196.747 E66.09588
G1 X98.501 Y196.35 E66.12875
G1 X97.367 Y195.719 E66.17191
G1 X96.801 Y195.356 E66.19427
G1 X50.95 Y164.43 E68.03375
G1 X50.328 Y163.997 E68.05896
G1 X49.375 Y163.261 E68.09901
G1 X47.189 Y161.394 E68.19462
G1 X45.266 Y159.846 E68.27673
G1 X43.287 Y158.343 E68.35938
G1 X41.277 Y156.905 E68.44158
G1 X39.202 Y155.507 E68.5248
G1 X37.107 Y154.18 E68.60728
G1 X34.985 Y152.918 E68.6894
G1 X32.789 Y151.696 E68.77299
G1 X30.354 Y150.43 E68.86427
G1 X29.171 Y149.728 E68.91002
G1 X28.853 Y149.514 E68.92277
G1 X28.056 Y148.929 E68.95565
G1 X27.31 Y148.283 E68.98847
G1 X26.618 Y147.578 E69.02133
G1 X25.985 Y146.819 E69.0542
G1 X25.416 Y146.012 E69.08704
G1 X24.914 Y145.161 E69.11991
G1 X24.483 Y144.273 E69.15274
G1 X24.125 Y143.352 E69.1856
G1 X23.842 Y142.406 E69.21844
