;FLAVOR:Marlin
;TIME:12502
;Filament used: 7.77543m
;Layer height: 0.2
;MINX:23.878
;MINY:37.821
;MINZ:0.2
;MAXX:211.146
;MAXY:197.188
;MAXZ:4
;Generated with Cura_SteamEngine main
M140 S50
M105
M190 S50
M104 S200
M105
M109 S200
M82 ;absolute extrusion mode
; Ender 3 Custom Start G-code
G92 E0 ; Reset Extruder
G28 ; Home all axes
G1 Z2.0 F3000 ; Move Z Axis up little to prevent scratching of Heat Bed
G1 X0.1 Y20 Z0.3 F5000.0 ; Move to start position
G1 X0.1 Y200.0 Z0.3 F1500.0 E15 ; Draw the first line
G1 X0.4 Y200.0 Z0.3 F5000.0 ; Move to side a little
G1 X0.4 Y20 Z0.3 F1500.0 E30 ; Draw the second line
G92 E0 ; Reset Extruder
G1 Z2.0 F3000 ; Move Z Axis up little to prevent scratching of Heat Bed
G1 X5 Y20 Z0.3 F5000.0 ; Move over to prevent blob squish
G92 E0
G92 E0
G1 F2700 E-5
;LAYER_COUNT:20
;LAYER:0
M107
G0 F6000 X73.937 Y43.294 Z0.2
;TYPE:SKIRT
G1 F2700 E0
G1 F1200 X74.359 Y42.709 E0.02399
G1 X74.959 Y41.945 E0.0563
G1 X75.62 Y41.233 E0.08861
G1 X76.338 Y40.578 E0.12094
G1 X77.106 Y39.984 E0.15323
G1 X77.921 Y39.456 E0.18553
G1 X78.777 Y38.996 E0.21785
G1 X79.668 Y38.608 E0.25017
G1 X80.587 Y38.295 E0.28246
G1 X81.53 Y38.059 E0.3148
G1 X82.488 Y37.9 E0.3471
G1 X83.456 Y37.821 E0.3794
G1 X84.428 Y37.823 E0.41173
G1 X85.396 Y37.903 E0.44403
G1 X86.354 Y38.064 E0.47634
G1 X87.369 Y38.325 E0.5112
G1 X87.98 Y38.519 E0.53252
G1 X137.602 Y55.603 E2.27803
G1 X138.42 Y55.897 E2.30694
G1 X139.32 Y56.264 E2.33927
G1 X140.186 Y56.703 E2.37156
G1 X141.099 Y57.272 E2.40734
G1 X141.785 Y57.744 E2.43504
G1 X162.574 Y72.374 E3.28054
G1 X164.742 Y73.856 E3.36788
G1 X166.807 Y75.182 E3.44951
G1 X168.969 Y76.484 E3.53345
G1 X171.121 Y77.699 E3.61564
G1 X173.312 Y78.858 E3.69809
G1 X175.587 Y79.978 E3.78242
G1 X177.846 Y81.013 E3.86507
G1 X180.112 Y81.973 E3.94692
G1 X182.472 Y82.897 E4.03122
G1 X184.822 Y83.74 E4.11426
G1 X187.18 Y84.512 E4.19678
G1 X189.565 Y85.218 E4.27951
G1 X191.961 Y85.855 E4.36197
G1 X194.435 Y86.438 E4.44651
G1 X196.861 Y86.937 E4.52888
G1 X199.318 Y87.371 E4.61187
G1 X201.17 Y87.663 E4.67423
G1 X202.123 Y87.854 E4.70656
G1 X203.056 Y88.122 E4.73884
G1 X203.965 Y88.465 E4.77116
G1 X204.842 Y88.883 E4.80347
G1 X205.682 Y89.371 E4.83578
G1 X206.479 Y89.927 E4.8681
G1 X207.227 Y90.546 E4.90039
G1 X207.922 Y91.225 E4.93271
G1 X208.559 Y91.958 E4.96501
G1 X209.133 Y92.742 E4.99733
G1 X209.641 Y93.57 E5.02964
G1 X210.079 Y94.437 E5.06194
G1 X210.444 Y95.337 E5.09425
G1 X210.734 Y96.264 E5.12655
G1 X210.947 Y97.212 E5.15887
G1 X211.081 Y98.174 E5.19117
G1 X211.132 Y98.989 E5.21833
G1 X211.146 Y99.641 E5.24003
G1 X211.145 Y138.859 E6.54442
G1 X211.135 Y139.561 E6.56777
G1 X211.081 Y140.531 E6.60008
G1 X210.948 Y141.493 E6.63239
G1 X210.736 Y142.441 E6.66469
G1 X210.446 Y143.368 E6.697
G1 X210.082 Y144.269 E6.72932
G1 X209.644 Y145.136 E6.76163
G1 X209.137 Y145.964 E6.79392
G1 X208.563 Y146.748 E6.82624
G1 X207.927 Y147.482 E6.85854
G1 X207.232 Y148.162 E6.89088
G1 X206.484 Y148.781 E6.92317
G1 X205.926 Y149.182 E6.94603
G1 X205.62 Y149.388 E6.9583
G1 X204.474 Y150.068 E7.00262
G1 X201.992 Y151.359 E7.09567
G1 X199.796 Y152.582 E7.17927
G1 X197.648 Y153.86 E7.2624
G1 X195.545 Y155.193 E7.34522
G1 X193.485 Y156.582 E7.42785
G1 X191.451 Y158.039 E7.51107
G1 X189.46 Y159.551 E7.59422
G1 X187.536 Y161.101 E7.6764
G1 X185.36 Y162.962 E7.77163
G1 X184.413 Y163.692 E7.8114
G1 X183.735 Y164.161 E7.83882
G1 X138.356 Y194.769 E9.65937
G1 X137.616 Y195.255 E9.68881
G1 X136.782 Y195.754 E9.72114
G1 X135.911 Y196.183 E9.75343
G1 X135.007 Y196.538 E9.78573
G1 X134.076 Y196.818 E9.81807
G1 X133.126 Y197.02 E9.85037
G1 X132.163 Y197.144 E9.88267
G1 X131.192 Y197.188 E9.91499
G1 X130.222 Y197.152 E9.94728
G1 X129.257 Y197.036 E9.97961
G1 X128.306 Y196.841 E10.0119
G1 X127.373 Y196.569 E10.04422
G1 X126.466 Y196.221 E10.07653
G1 X125.591 Y195.799 E10.10884
G1 X124.713 Y195.281 E10.14275
G1 X124.134 Y194.896 E10.16587
G1 X29.378 Y128.546 E14.01328
G1 X28.775 Y128.112 E14.03799
G1 X28.01 Y127.513 E14.07031
G1 X27.298 Y126.853 E14.1026
G1 X26.642 Y126.136 E14.13492
G1 X26.048 Y125.368 E14.16722
G1 X25.518 Y124.553 E14.19955
G1 X25.058 Y123.698 E14.23184
G1 X24.669 Y122.808 E14.26415
G1 X24.355 Y121.889 E14.29645
G1 X24.117 Y120.947 E14.32876
G1 X23.958 Y119.989 E14.36106
G1 X23.878 Y119.021 E14.39337
G1 X23.878 Y118.049 E14.4257
G1 X23.958 Y117.081 E14.458
G1 X24.117 Y116.123 E14.4903
G1 X24.355 Y115.181 E14.52262
G1 X24.669 Y114.262 E14.55492
G1 X25.058 Y113.372 E14.58723
G1 X25.518 Y112.516 E14.61955
G1 X25.816 Y112.04 E14.63822
G1 X26.209 Y111.453 E14.66172
G1 X73.937 Y43.294 E17.42924
G0 F6000 X74.262 Y43.528
G1 F1200 X74.684 Y42.943 E17.45323
G1 X75.274 Y42.192 E17.48499
G1 X75.925 Y41.494 E17.51674
G1 X76.633 Y40.853 E17.5485
G1 X77.391 Y40.273 E17.58025
G1 X78.196 Y39.759 E17.61202
G1 X79.04 Y39.313 E17.64377
G1 X79.919 Y38.941 E17.67551
G1 X80.826 Y38.642 E17.70728
G1 X81.755 Y38.421 E17.73904
G1 X82.699 Y38.279 E17.77079
G1 X83.652 Y38.215 E17.80256
G1 X84.606 Y38.232 E17.83429
G1 X85.556 Y38.329 E17.86605
G1 X86.495 Y38.504 E17.89782
G1 X87.252 Y38.707 E17.92389
G1 X87.85 Y38.897 E17.94476
G1 X137.631 Y56.037 E19.69587
G1 X138.285 Y56.273 E19.719
G1 X139.168 Y56.634 E19.75073
G1 X140.019 Y57.068 E19.7825
G1 X140.873 Y57.601 E19.81598
G1 X141.555 Y58.071 E19.84353
G1 X162.405 Y72.744 E20.69151
G1 X164.481 Y74.163 E20.77515
G1 X166.616 Y75.534 E20.85954
G1 X168.746 Y76.817 E20.94225
G1 X170.932 Y78.051 E21.02574
G1 X173.155 Y79.227 E21.10938
G1 X175.394 Y80.329 E21.19238
G1 X177.689 Y81.38 E21.27634
G1 X179.99 Y82.356 E21.35947
G1 X182.297 Y83.258 E21.44186
G1 X184.7 Y84.121 E21.52678
G1 X187.047 Y84.889 E21.60891
G1 X189.463 Y85.605 E21.69273
G1 X191.905 Y86.253 E21.77676
G1 X194.335 Y86.826 E21.8598
G1 X196.776 Y87.328 E21.94268
G1 X199.232 Y87.762 E22.02564
G1 X201.108 Y88.058 E22.0888
G1 X202.044 Y88.246 E22.12056
G1 X202.961 Y88.511 E22.1523
G1 X203.853 Y88.853 E22.18408
G1 X204.713 Y89.267 E22.21582
G1 X205.535 Y89.752 E22.24757
G1 X206.314 Y90.305 E22.27934
G1 X207.044 Y90.92 E22.31109
G1 X207.72 Y91.595 E22.34286
G1 X208.337 Y92.323 E22.3746
G1 X208.891 Y93.101 E22.40637
G1 X209.378 Y93.922 E22.43812
G1 X209.795 Y94.781 E22.46988
G1 X210.138 Y95.672 E22.50163
G1 X210.405 Y96.589 E22.5334
G1 X210.595 Y97.525 E22.56517
G1 X210.705 Y98.473 E22.59691
G1 X210.733 Y99 E22.61446
G1 X210.746 Y99.641 E22.63578
G1 X210.745 Y138.853 E23.93998
G1 X210.735 Y139.555 E23.96333
G1 X210.681 Y140.509 E23.99511
G1 X210.548 Y141.454 E24.02685
G1 X210.336 Y142.385 E24.05861
G1 X210.047 Y143.295 E24.09037
G1 X209.683 Y144.178 E24.12213
G1 X209.247 Y145.027 E24.15388
G1 X208.74 Y145.836 E24.18563
G1 X208.168 Y146.601 E24.2174
G1 X207.534 Y147.314 E24.24914
G1 X206.843 Y147.973 E24.2809
G1 X206.098 Y148.571 E24.31267
G1 X205.396 Y149.056 E24.34105
G1 X204.29 Y149.713 E24.38383
G1 X201.778 Y151.02 E24.47802
G1 X199.619 Y152.223 E24.56022
G1 X197.435 Y153.521 E24.64472
G1 X195.329 Y154.856 E24.72765
G1 X193.258 Y156.253 E24.81074
G1 X191.222 Y157.711 E24.89403
G1 X189.213 Y159.238 E24.97796
G1 X187.271 Y160.801 E25.06088
G1 X185.1 Y162.658 E25.1559
G1 X184.185 Y163.363 E25.19431
G1 X183.512 Y163.829 E25.22154
G1 X138.01 Y194.519 E27.04701
G1 X137.397 Y194.921 E27.07139
G1 X136.577 Y195.411 E27.10316
G1 X135.719 Y195.83 E27.13492
G1 X134.829 Y196.176 E27.16668
G1 X133.914 Y196.447 E27.19842
G1 X132.979 Y196.64 E27.23017
G1 X132.031 Y196.754 E27.26193
G1 X131.077 Y196.788 E27.29368
G1 X130.123 Y196.742 E27.32545
G1 X129.176 Y196.617 E27.35722
G1 X128.244 Y196.413 E27.38895
G1 X127.331 Y196.131 E27.42073
G1 X126.446 Y195.774 E27.45247
G1 X125.593 Y195.345 E27.48423
G1 X124.931 Y194.945 E27.50995
G1 X124.363 Y194.568 E27.53263
G1 X29.612 Y128.222 E31.37983
G1 X29.009 Y127.788 E31.40454
G1 X28.258 Y127.198 E31.4363
G1 X27.559 Y126.547 E31.46807
G1 X26.917 Y125.841 E31.49981
G1 X26.336 Y125.083 E31.53158
G1 X25.821 Y124.279 E31.56333
G1 X25.375 Y123.435 E31.59508
G1 X25.001 Y122.556 E31.62686
G1 X24.702 Y121.65 E31.65859
G1 X24.48 Y120.721 E31.69036
G1 X24.336 Y119.777 E31.72212
G1 X24.272 Y118.825 E31.75385
G1 X24.287 Y117.87 E31.78562
G1 X24.383 Y116.92 E31.81738
G1 X24.558 Y115.981 E31.84915
G1 X24.81 Y115.061 E31.88087
G1 X25.139 Y114.164 E31.91265
G1 X25.542 Y113.298 E31.94442
G1 X26.15 Y112.26 E31.98443
G1 X26.537 Y111.682 E32.00757
G1 X74.262 Y43.528 E34.77489
G0 F6000 X74.586 Y43.762
G1 F1200 X75.008 Y43.177 E34.79888
G1 X75.589 Y42.44 E34.8301
G1 X76.23 Y41.756 E34.86127
G1 X76.927 Y41.128 E34.89248
G1 X77.675 Y40.563 E34.92366
G1 X78.469 Y40.063 E34.95486
G1 X79.302 Y39.633 E34.98604
G1 X80.169 Y39.275 E35.01724
G1 X81.063 Y38.992 E35.04843
G1 X81.978 Y38.786 E35.07963
G1 X82.907 Y38.66 E35.11081
G1 X83.844 Y38.612 E35.14201
G1 X84.781 Y38.645 E35.1732
G1 X85.712 Y38.758 E35.20439
G1 X86.631 Y38.949 E35.23561
G1 X87.136 Y39.09 E35.25305
G1 X87.72 Y39.275 E35.27342
G1 X137.342 Y56.359 E37.01893
G1 X138.149 Y56.649 E37.04745
G1 X139.017 Y57.005 E37.07866
G1 X139.851 Y57.433 E37.10984
G1 X140.646 Y57.931 E37.14104
G1 X141.325 Y58.398 E37.16845
G1 X162.155 Y73.057 E38.01562
G1 X164.286 Y74.513 E38.10146
G1 X166.389 Y75.864 E38.18459
G1 X168.548 Y77.165 E38.26843
G1 X170.755 Y78.41 E38.35271
G1 X172.956 Y79.575 E38.43554
G1 X175.23 Y80.694 E38.51983
G1 X177.516 Y81.741 E38.60346
G1 X179.836 Y82.725 E38.68728
G1 X182.184 Y83.643 E38.77113
G1 X184.556 Y84.495 E38.85496
G1 X186.946 Y85.277 E38.9386
G1 X189.352 Y85.99 E39.02206
G1 X191.774 Y86.633 E39.10541
G1 X194.268 Y87.22 E39.19063
G1 X196.704 Y87.722 E39.27335
G1 X199.169 Y88.157 E39.3566
G1 X201.046 Y88.454 E39.41981
G1 X201.965 Y88.639 E39.45099
G1 X202.866 Y88.901 E39.4822
G1 X203.74 Y89.24 E39.51338
G1 X204.583 Y89.652 E39.54458
G1 X205.388 Y90.134 E39.57579
G1 X206.148 Y90.682 E39.60695
G1 X206.859 Y91.294 E39.63816
G1 X207.515 Y91.964 E39.66934
G1 X208.112 Y92.687 E39.70053
G1 X208.645 Y93.459 E39.73173
G1 X209.111 Y94.273 E39.76293
G1 X209.505 Y95.124 E39.79412
G1 X209.826 Y96.005 E39.82531
G1 X210.07 Y96.911 E39.85651
G1 X210.236 Y97.834 E39.8877
G1 X210.333 Y99.012 E39.92702
G1 X210.346 Y99.641 E39.94794
G1 X210.345 Y138.848 E41.25197
G1 X210.335 Y139.55 E41.27532
G1 X210.282 Y140.486 E41.3065
G1 X210.149 Y141.414 E41.33769
G1 X209.937 Y142.328 E41.36889
G1 X209.649 Y143.221 E41.4001
G1 X209.285 Y144.085 E41.43128
G1 X208.849 Y144.916 E41.4625
G1 X208.344 Y145.706 E41.49368
G1 X207.774 Y146.45 E41.52485
G1 X207.142 Y147.143 E41.55605
G1 X206.453 Y147.78 E41.58726
G1 X205.479 Y148.518 E41.6279
G1 X205.173 Y148.724 E41.64017
G1 X204.105 Y149.358 E41.68148
G1 X201.619 Y150.651 E41.77468
G1 X199.383 Y151.897 E41.85982
G1 X197.238 Y153.173 E41.94283
G1 X195.122 Y154.514 E42.02615
G1 X193.023 Y155.929 E42.11035
G1 X190.97 Y157.4 E42.19435
G1 X188.983 Y158.909 E42.27733
G1 X187.01 Y160.498 E42.36159
G1 X184.84 Y162.354 E42.45656
G1 X183.957 Y163.035 E42.49365
G1 X183.403 Y163.419 E42.51607
G1 X137.909 Y194.105 E44.34124
G1 X137.177 Y194.586 E44.37038
G1 X136.372 Y195.067 E44.40157
G1 X135.528 Y195.477 E44.43277
G1 X134.653 Y195.814 E44.46396
G1 X133.752 Y196.075 E44.49516
G1 X132.832 Y196.258 E44.52636
G1 X131.9 Y196.362 E44.55755
G1 X130.963 Y196.386 E44.58872
G1 X130.026 Y196.331 E44.61994
G1 X129.098 Y196.196 E44.65113
G1 X128.185 Y195.982 E44.68232
G1 X127.293 Y195.692 E44.71352
G1 X126.43 Y195.326 E44.7447
G1 X125.6 Y194.888 E44.77591
G1 X125.149 Y194.61 E44.79353
G1 X124.593 Y194.241 E44.81573
G1 X29.845 Y127.897 E48.66281
G1 X29.242 Y127.463 E48.68752
G1 X28.505 Y126.883 E48.71871
G1 X27.82 Y126.243 E48.74989
G1 X27.192 Y125.546 E48.78109
G1 X26.625 Y124.799 E48.81229
G1 X26.125 Y124.006 E48.84347
G1 X25.693 Y123.173 E48.87468
G1 X25.335 Y122.306 E48.90587
G1 X25.051 Y121.412 E48.93707
G1 X24.844 Y120.497 E48.96827
G1 X24.717 Y119.568 E48.99946
G1 X24.668 Y118.632 E49.03064
G1 X24.7 Y117.694 E49.06185
G1 X24.812 Y116.763 E49.09304
G1 X25.002 Y115.845 E49.12422
G1 X25.27 Y114.946 E49.15542
G1 X25.613 Y114.073 E49.18662
G1 X26.03 Y113.233 E49.21781
G1 X26.484 Y112.481 E49.24703
G1 X26.864 Y111.912 E49.26978
G1 X74.586 Y43.762 E52.03694
G0 F6000 X74.91 Y43.996
G1 F1200 X75.332 Y43.411 E52.06093
G1 X75.903 Y42.688 E52.09157
G1 X76.534 Y42.018 E52.12219
G1 X77.221 Y41.405 E52.15281
G1 X77.958 Y40.854 E52.18341
G1 X78.741 Y40.369 E52.21405
G1 X79.562 Y39.953 E52.24466
G1 X80.417 Y39.611 E52.27529
G1 X81.298 Y39.344 E52.30591
G1 X82.199 Y39.154 E52.33653
G1 X83.113 Y39.043 E52.36716
G1 X84.033 Y39.013 E52.39777
G1 X84.952 Y39.062 E52.42838
G1 X85.864 Y39.19 E52.45901
G1 X87.019 Y39.472 E52.49856
G1 X87.59 Y39.653 E52.51848
G1 X137.212 Y56.737 E54.26399
G1 X138.013 Y57.025 E54.2923
G1 X138.865 Y57.375 E54.32294
G1 X139.683 Y57.798 E54.35356
G1 X140.42 Y58.261 E54.38251
G1 X141.095 Y58.725 E54.40976
G1 X161.938 Y73.393 E55.25745
G1 X164.066 Y74.847 E55.34317
G1 X166.182 Y76.206 E55.42682
G1 X168.366 Y77.522 E55.51163
G1 X170.522 Y78.739 E55.59397
G1 X172.799 Y79.943 E55.67964
G1 X175.065 Y81.059 E55.76365
G1 X177.359 Y82.11 E55.84758
G1 X179.683 Y83.095 E55.93153
G1 X182.008 Y84.005 E56.01457
G1 X184.434 Y84.875 E56.10029
G1 X186.823 Y85.658 E56.18391
G1 X189.24 Y86.373 E56.26774
G1 X191.685 Y87.023 E56.35189
G1 X194.167 Y87.607 E56.43669
G1 X196.659 Y88.12 E56.52132
G1 X199.112 Y88.553 E56.60417
G1 X200.984 Y88.849 E56.6672
G1 X201.886 Y89.031 E56.69781
G1 X202.769 Y89.291 E56.72842
G1 X203.627 Y89.627 E56.75907
G1 X204.452 Y90.036 E56.7897
G1 X205.238 Y90.514 E56.82029
G1 X205.98 Y91.06 E56.85093
G1 X206.671 Y91.667 E56.88152
G1 X207.308 Y92.332 E56.91215
G1 X207.884 Y93.05 E56.94277
G1 X208.396 Y93.816 E56.97341
G1 X208.839 Y94.623 E57.00403
G1 X209.211 Y95.465 E57.03465
G1 X209.508 Y96.336 E57.06526
G1 X209.729 Y97.23 E57.09589
G1 X209.871 Y98.14 E57.12652
G1 X209.933 Y99.023 E57.15596
G1 X209.946 Y99.641 E57.17652
G1 X209.945 Y138.842 E58.48035
G1 X209.935 Y139.544 E58.5037
G1 X209.882 Y140.463 E58.53432
G1 X209.749 Y141.374 E58.56494
G1 X209.538 Y142.27 E58.59556
G1 X209.25 Y143.145 E58.62619
G1 X208.887 Y143.991 E58.65681
G1 X208.452 Y144.802 E58.68742
G1 X207.948 Y145.573 E58.71806
G1 X207.38 Y146.297 E58.74866
G1 X206.75 Y146.969 E58.7793
G1 X206.065 Y147.583 E58.8099
G1 X205.256 Y148.186 E58.84346
G1 X204.95 Y148.392 E58.85573
G1 X203.92 Y149.003 E58.89556
G1 X201.419 Y150.304 E58.98932
G1 X199.206 Y151.537 E59.07358
G1 X197.025 Y152.834 E59.15798
G1 X194.906 Y154.177 E59.24142
G1 X192.796 Y155.6 E59.32607
G1 X190.74 Y157.072 E59.41017
G1 X188.735 Y158.595 E59.49391
G1 X186.745 Y160.198 E59.5789
G1 X184.58 Y162.05 E59.67366
G1 X183.73 Y162.706 E59.70938
G1 X183.176 Y163.09 E59.7318
G1 X137.571 Y193.85 E61.5614
G1 X136.958 Y194.252 E61.58579
G1 X136.167 Y194.723 E61.61641
G1 X135.338 Y195.123 E61.64702
G1 X134.477 Y195.451 E61.67766
G1 X133.592 Y195.702 E61.70826
G1 X132.687 Y195.875 E61.73891
G1 X131.772 Y195.969 E61.7695
G1 X130.851 Y195.984 E61.80014
G1 X129.933 Y195.918 E61.83075
G1 X129.024 Y195.774 E61.86136
G1 X128.13 Y195.55 E61.89201
G1 X127.26 Y195.25 E61.92262
G1 X126.419 Y194.876 E61.95323
G1 X125.367 Y194.275 E61.99353
G1 X124.822 Y193.913 E62.01529
G1 X30.079 Y127.572 E65.86218
G1 X29.476 Y127.138 E65.88689
G1 X28.753 Y126.569 E65.91749
G1 X28.082 Y125.938 E65.94812
G1 X27.468 Y125.252 E65.97874
G1 X26.916 Y124.515 E66.00937
G1 X26.43 Y123.733 E66.03999
G1 X26.014 Y122.912 E66.07061
G1 X25.67 Y122.058 E66.10123
G1 X25.403 Y121.177 E66.13185
G1 X25.212 Y120.276 E66.16248
G1 X25.1 Y119.362 E66.19311
G1 X25.068 Y118.442 E66.22372
G1 X25.116 Y117.523 E66.25433
G1 X25.244 Y116.611 E66.28496
G1 X25.45 Y115.714 E66.31557
G1 X25.734 Y114.838 E66.3462
G1 X26.092 Y113.99 E66.37682
G1 X26.522 Y113.176 E66.40744
G1 X26.818 Y112.701 E66.42605
G1 X27.192 Y112.141 E66.44845
G1 X74.91 Y43.996 E69.21539
G0 F6000 X75.235 Y44.23
G1 F1200 X75.657 Y43.645 E69.23939
G1 X76.217 Y42.936 E69.26944
G1 X76.838 Y42.28 E69.29948
G1 X77.514 Y41.682 E69.3295
G1 X78.241 Y41.145 E69.35956
G1 X79.012 Y40.676 E69.38957
G1 X79.821 Y40.276 E69.41959
G1 X80.663 Y39.949 E69.44963
G1 X81.531 Y39.698 E69.47969
G1 X82.417 Y39.525 E69.50971
G1 X83.315 Y39.43 E69.53975
